X:1
T:Piano Concerto in A Minor
T:Piano Concerto in A Minor
T:3rd Movement
T:Edvard Grieg, Op. 16
T:Arranged for 2 pianos by the composer (Edited by Bertha Feiring Tapper 
C:Edvard Grieg, Op. 16
%%score { ( 1 4 ) | ( 2 3 ) } { ( 5 8 10 ) | ( 6 7 9 ) }
L:1/8
Q:1/4=124
M:2/4
K:C
V:1 treble nm="Piano I\n(Solo)" snm="Pno. I\n(Solo)"
V:4 treble 
V:2 bass 
V:3 bass 
V:5 treble nm="Piano II\n(Orchestra)" snm="Pno. II\n(Orch.)"
V:8 treble 
V:10 treble 
V:6 bass 
V:7 bass 
V:9 bass 
V:1
"^Allegro moderato molto e marcato" z4 | z4 | z4 | z4 | %4
[K:bass]!ff! (13:8:13z/ B,,/^D,/A,/B,/^D/[K:treble]A/B/^d/a/b/^d'/a'/ | b' z [AB^da].E | %6
 [eae']!8va(!!fermata!e''- (7:4:7e''/^d''/e''/=d''/c''/b'/a'/ | %7
 (27:8:27g'/f'/e'/d'/c'/b/!8va)!a/^g/f/e/d/c/B/A/^G/F/E/D/C/[I:staff +1]B,/A,/^G,/F,/E,/D,/C,/B,,/ | %8
!f! A,,[I:staff -1] z z2 | z2!p! [Ac]/[Bd]/[Bd]/[ce]/ |"_cresc." !>![Bde]2 !>![Bde]2 | %11
 !>![Bde]2!f! [Bd]/[fa]/[fa]/[Bd]/ |!p! !>![ce]2"_cresc." !>![ce]2 | !>![ce]2!f! A/c/c/=G/ | %14
 .[GAcg]!f!.[FAcf] F/A/A/E/ | .[EFAe]!f!.[DFAd]!>(! D/F/F/C/ | C/F/!>)!!p! .[_B,DF].[A,CF].[B,DF] | %17
 [A,CF]!<(! (3C/D/^D/ .E.[B,E^G]!<)! | [^CEA]!p! z z2 | z2!p! [A^c]/[Bd]/[Bd]/[ce]/ | %20
!<(! !>!e2 !>!e2 | !>!e2 !>!e2!<)! |!p! _b/d'/f'/a/ f/^g/=b/e/ | [^c'e']2 [A^c]/[Bd]/[Bd]/[ce]/ | %24
!p! !>!e2 !>!e2 | !>!e2 !>!e2 |!p! _b/d'/f'/a/ f/^g/=b/e/ | b/^c'/e'/a/ !>!f/^g/b/e/ | %28
 b/[Q:1/4=130]"_stringendo"^c'/e'/a/ !>!f/^g/b/e/ | b/^c'/e'/a/!<(! !>!f/^g/b/e/ | %30
 !>!f/^g/b/e/ !>!f/g/b/e/!<)! |!f![Q:1/4=136] !>!b/^c'/e'/a/ ^f/a/c'/e/ | %32
 !>!B/^c/e/A/ !>!^F/A/c/E/ | !>!B,/^C/E/A,/[I:staff +1] !>!^F,/A,/^C/E,/ | %34
[Q:1/4=142] !>!^F,/A,/^C/E,/ !>!F,/A,/C/E,/ | !>!=F,/A,/=C/E,/ (5:4:5!>!F,/A,/C/E,/^F,/ | %36
[Q:1/4=118] (22:16:22^G,/4A,/4B,/4!<(![I:staff -1]C/4D/4E/4^F/4^G/4A/4B/4c/4d/4e/4^f/4^g/4a/4b/4c'/4d'/4e'/4^f'/4^g'/4!<)! | %37
!ff![Q:1/4=118]"^a tempo" a' z z2 | z4 | z4 | z4 | z4 | z4 | z4 | z4 | %45
!p! (3z/!<(! C/E/(3A/c/B/{AB} (3A/^G/B/!<)!!mp!.[df] | %46
!p! (3z/!<(! C/E/(3A/c/B/{AB} (3A/^G/B/!<)!!mp!.[df] | %47
!p! (6:4:6z/!<(! ^G/B/d/f/e/{de} (3d/^c/e/!<)!!mf!.[=g_b] | %48
!p! (6:4:6!>!e/f/e/d/a/A/ (6:4:6!>!=c/d/c/=B/f/F/ | %49
!p! (6:4:6z/!<(! c/e/a/c'/b/{ab} (3a/^g/b/!<)!!mf!.[d'f'] | %50
!p! (6:4:6z/!<(! c/e/a/c'/b/{ab} (3a/^g/b/!<)!!mf!.[d'f'] | %51
!p! (6:4:6z/!<(! ^g/b/d'/f'/e'/{d'e'} (3d'/^c'/e'/!<)!!mf!.[=g'_b'] | %52
!p! (6:4:6!>!e'/^f'/e'/d'/a'/a/ (6:4:6=c'/d'/c'/=b/=f'/=f/ | %53
 (6:4:6b/c'/b/a/e'/e/ (6:4:6_e/_b/e/d/b/d/ | %54
!<(! (6:4:6^c/_b/c/d/b/!<)!!mp!d/ (6:4:6_e/!>(!b/e/^c/a/c/!>)! | %55
!p! (6:4:6=e/f/e/d/a/A/ (6:4:6_b/f'/b/a/f'/a/ | (6:4:6^g/f'/g/a/f'/a/ (6:4:6_b/f'/b/^g/e'/g/ | %57
 (6:4:6=b/c'/b/a/e/e'/!>(! (6:4:6b/a/e/B/A/G/!>)! | !>![Ee]2 !>!_e2 | !>!d2 !>!^d2 | !>!e2 !>!^d2 | %61
"_cresc." !>!e2 !>!a2 | !>!a2 !>!_a2 | !>!g2 !>!^g2 | %64
!ff![Q:1/4=98]"^con bravura" .[ABfa]/z/4[dd']/4[dd'] z/ [^F^f]/[=G=g]/[^G^g]/ | %65
 .[Ac=fa]/z/4[dd']/4[dd'] z/ [^F^f]/[=G=g]/[^G^g]/ | %66
 [Ad=fa]/z/4[aa']/4!fermata![aa']- (6:4:6[aa']/[Q:1/4=124]^g'/a'/f'/d'/b/ | %67
 (6:4:6^g/a/f/d/B/^G/ (6:4:6A/F/D/[I:staff +1]B,/A,/=G,/ | %68
[Q:1/4=98][I:staff -1] !tenuto!.[E,G,CE] z !tenuto!.[EGce] z | %69
 !tenuto!.[egc'e'] z z[Q:1/4=108] .[Ee] | [Ed].[EB]/.[Ed]/ [Ed].[Ec]/.[CG]/ | %71
 .[CB] !tenuto!!fermata![A,CFA]2 .[A,A] |!>(! [A,G].[A,E]/.[A,G]/ [A,G].[A,F]/.[F,C]/!>)! | %73
!p![Q:1/4=98] .[F,E]!>(! !>![F,D]2 [F,C]!>)! |[Q:1/4=114]!p! x F,/4G,/4B,/4D/4 x F/4G/4B/4d/4 | %75
 x f/4g/4b/4d'/4 x!8va(! f'/4g'/4b'/4d''/4!8va)! | x E,/4G,/4_B,/4D/4 x E/4G/4_B/4d/4 | %77
 x e/4g/4_b/4d'/4 x!8va(! e'/4g'/4_b'/4d''/4!8va)! | x G,/4A,/4^C/4E/4 x G/4A/4^c/4e/4 | %79
 x g/4a/4^c'/4e'/4 x!8va(! g'/4a'/4^c''/4e''/4!8va)! | x ^F,/4A,/4=C/4E/4 x ^F/4A/4=c/4e/4 | %81
 x ^f/4a/4c'/4e'/4 x!8va(! ^f'/4a'/4c''/4e''/4!8va)! | %82
"_cresc." x A,/4B,/4^D/4^F/4 x A/4B/4^d/4^f/4 | x ^G,/4B,/4=D/4^F/4 x ^G/4B/4=d/4^f/4 | %84
 x B,/4^C/4^E/4^G/4 x B/4^c/4^e/4^g/4 | x _B,/4_D/4_F/4_A/4 x _B/4_d/4_f/4_a/4 | %86
 x _D/4_E/4G/4_B/4 x _d/4_e/4g/4_b/4 | x C/4_E/4_G/4_B/4 x c/4_e/4_g/4_b/4 | %88
!ff! x[K:bass] ^D,/4F,/4=A,/4C/4 x[K:treble] ^D/4F/4=A/4c/4 | %89
!<(! z ^d/4f/4a/4c'/4 z!8va(! ^d'/4f'/4a'/4c''/4!<)!!8va)! |!fff! z4 | z4 | z4 | z4 | z4 | z4 | %96
 z4 | z4 | z4 | z4 | z4 | z4 |!8va(! [e'a'c''e'']2!8va)! [eac'e']2 | %103
 [EAce]2 [Cc]/[B,B]/[B,B]/[A,A]/ | !>![FAcf]4 | !>![^FAce^f]4 | [Bd=fa]4 | %107
 !fermata!E,2[K:treble]!p![Q:1/4=180]"^prestissimo" E/F/ [D^G]/B/ | %108
 ^^F/^G/ [=FB]/d/ ^A/B/ [Gd]/f/ | z/ d/ [Bf]/^g/[Q:1/4=210] e/f/ [dg]/b/ | %110
 ^^f/^g/ [=fb]/d'/!8va(!!<(! ^a/b/ [gd']/f'/ | ^c'/d'/ [bf']/^g'/[Q:1/4=240] e'/f'/ [d'g']/b'/ | %112
 e'/f'/ [d'^g']/b'/ e'/f'/ [d'g']/b'/ | e'/f'/ [d'^g']/b'/ e'/f'/ [d'g']/b'/ | %114
 e'/f'/ [d'^g']/b'/ e'/f'/ [d'g']/b'/ e'/f'/ [d'g']/b'/!8va)!!<)! | %115
[Q:1/4=98]!f! z [^G,B,DE^G] [GBde^g] !fermata![gbd'e'^g'] | %116
[Q:1/4=30]!8va(! (43:4:43e''63/64^d''63/64e''63/64=d''63/64=c''63/64b'63/64[Q:1/4=40]=a'63/64^g'63/64=f'63/64e'63/64d'63/64c'63/64b63/64!8va)![Q:1/4=50]a63/64^g63/64f63/64e63/64d63/64c63/64B63/64A63/64[Q:1/4=60]^G63/64F63/64E63/64D63/64[I:staff +1]C63/64B,63/64A,63/64!>!!fermata!^G,63/64A,63/64B,63/64C63/64D63/64E63/64[I:staff -1]F63/64!<(!^G63/64A63/64B63/64c63/64d63/64e63/64f63/64!fermata!^g63/64!<)! | %117
!ff![Q:1/4=108]"^a tempo" !>!a.^g !>!a.g | !>!a.^g [Bb]/[dd']/[dd']/[^Gg]/ | %119
[Q:1/4=116] !>!b.a !>!b.a | !>!b.a [cc']/[ee']/[ee']/[Aa]/ |[Q:1/4=124] !>!=g'.f' !>!e'.d' | %122
 !>!c'._b !>!a.^g | !>!a'.=g' !>!f'.e' | !>!d'.^c' !>!_b.a |!8va(! !>!_b'.a' !>!g'.f' | %126
 !>!e'.d' !>!=c'.=b |[Q:1/4=106] !>!c''._b'[Q:1/4=115] !>!a'.^g'!8va)! | %128
[Q:1/4=124] !>!f'.e' !>!c'.b | !>!a.^g !>!f.e | !>!c.B !>!A.^G | !>!F.E !>!=G.^F | %132
 !>!^F.=F !>!F.E | !>!f>e !>!=g>^f | !>!^f>=f !>!f>e | %135
 e/4f/4e/4f/4e/4f/4e/4f/4 e/4f/4e/4f/4e/4f/4e/4^d/4 | %136
!f!!<(! [d^gb]/4[I:staff +1][eac']/4[I:staff -1][dgb]/4[I:staff +1][eac']/4[I:staff -1][dgb]/4[I:staff +1][eac']/4[I:staff -1][dgb]/4[I:staff +1][eac']/4[I:staff -1] [dgb]/4[I:staff +1][eac']/4[I:staff -1][dgb]/4[I:staff +1][eac']/4[I:staff -1][dgb]/4[I:staff +1][eac']/4[I:staff -1][dgb]/4!<)!!fff![I:staff +1][eac']/4 | %137
[I:staff -1] [d^gb]/4!>(![I:staff +1][eac']/4[I:staff -1][dgb]/4[I:staff +1][eac']/4[I:staff -1][dgb]/4[I:staff +1][eac']/4[I:staff -1][dgb]/4[I:staff +1][eac']/4[I:staff -1] (9:8:9[dgb]/4[I:staff +1][eac']/4[I:staff -1][dgb]/4[I:staff +1][eac']/4[I:staff -1][dgb]/4[I:staff +1][eac']/4[I:staff -1][dgb]/4[I:staff +1][^c^^f^a]/4!>)!!f![I:staff -1][dgb]/4 | %138
!ff![Q:1/4=104] z2!8va(! !tenuto!.[^gbd'e'^g']2 |[Q:1/4=124]!ff! !tenuto!.[ac'e'a']!8va)! z z2 | %140
 z4 | z4 | z4 | z4 | z4 | z4 | z4 | z4 | z4 |[Q:1/4=114] z4 | z4 | z4 | z4 | z4 | z4 | %155
[Q:1/4=104] z4 | z4 | z4 | z4 | z4 | z4 | z4 | z4 |[Q:1/4=94] z4 | z4 | z4 | z4 | z4 | z4 | z4 | %170
 z4[Q:1/4=60] |!p![Q:1/4=104] c4 | f4 |{/ef} (3e2 c2 e2 |{/de} (3d2 _B2 d2 | c4- | c3 d | %177
 !>!_e2[Q:1/4=114]!<(! !>!e2 | !>!_e2 !>!e2!<)! |[Q:1/4=104]!>(! _ed d2!>)! |!p! z AA_B | %181
 !>!c2[Q:1/4=114] !>!c2 | !>!c2 !>!c2 | c=B B2 | x4 | z _b b2 | _b4 |"_cresc." z d' d'2 | d'4 | %189
!f! (6:4:6z [_bd'f']a[gbd']f[egb] | (3d[ceg]B!>(! z2!>)! | %191
!pp![Q:1/4=94]"_rit." (6:4:6z [_b_d'f']_a[_gbd']f[_egb] | %192
[Q:1/4=67] _d/c/[c_g]/B/[Q:1/4=40] !tenuto!F!tenuto!=E |[Q:1/4=104]"_atempo"!p!{=A,CF=Ac} [cc']4 | %194
 [ff']4 | (5:4:5!arpeggio![ee']!arpeggio![ff']!arpeggio![ee']!arpeggio![cc']!arpeggio![ee'] | %196
 (5:4:5!arpeggio![dd']!arpeggio![ee']!arpeggio![dd']!arpeggio![_B_b]!arpeggio![dd'] | %197
 !arpeggio![cc']4- | [cc']3 [dd'] |!<(! (6:4:6[_ec'_e'][ec'e'][e_bd'e'][ebd'e'][ebd'e'][e_ac'e'] | %200
 (6:4:6[_e_ac'_e'][eac'e'][eg_be'][egbe'][egbe'][e^f=ae']!<)! |!>(! [_e^fa_e'][dd']!>)!!p! [dd']2 | %202
 z [Aa][Aa][_B_b] |!pp!!<(! (6:4:6[c_ac'][cac'][cg_bc'][cgbc'][cgbc'][c=fac'] | %204
 (6:4:6[cf_ac'][cfac'][c_egc'][cegc'][cegc'][cdfc']!<)! | [cdfc']!>(![=B=b] [Bb]2 | z4!>)! | %207
!p! z2 (5:4:5_b/c'/b/"_cresc."g/b/ | (5:4:5=a/_b/a/f/a/ (5:4:5g/a/g/e/g/ |!mf!!>(! fa[^c^c']e!>)! | %210
!mp! [efe']2"_cresc." [dd']2 | a_b[ee']g | [g=bg']2 [ff']2 |!f! (6:4:6!>!a_bd'a'gg' | %214
 (6:4:6!>!g_a_d'g'ff' |"_dim." (6:4:6!>!fg_bf'e=e' |[Q:1/4=94]"_molto rit." (6:4:6!>!ef=ae'_e_e' | %217
[Q:1/4=84] (6:4:6!>!_e^fa_e'dd' |[Q:1/4=72] (6:4:6!>!A_Bd[Q:1/4=60]ag!fermata!=e | %219
!pp![Q:1/4=104]"_a tempo"{de} dc z2 | z4 | z4 |{_ef} (3_ece{de} (3d_Bd | cf f2 | z4 | %225
 z2[Q:1/4=84]"_perdendosi"!>(!{f'g'} (3f'd'f' | %226
[Q:1/4=64]"_rit."{_e'f'} (3_e'c'e'[Q:1/4=44]{d'e'} (3d'_b!>)!!pp!d' | %227
[Q:1/4=104]"_a tempo"!pp! c'f' f'2 | z4 |!ppp!!8va(! f'c'' c''2!8va)! | z4 |[Q:1/4=94] x4 | %232
[Q:1/4=84] (6:4:6cfac'!8va(!f'a' | !>!f''2!8va)! z2 | z4 | %235
!ppp!!8va(! !arpeggio![c'f'a'f'']2!8va)! z2 | z4 |!8va(! !arpeggio![c'f'a'f'']2!8va)! z2 | %238
 !fermata!z4 ||[Q:1/4=124]"^a tempo" z4 | z4 | z4 | z4 | z4 | z4 |!f! z4 | %246
 z2!p! [Ac]/[Bd]/[Bd]/[ce]/ |"_cresc." !>![Bde]2 !>![Bde]2 | !>![Bde]2!f! [Bd]/[fa]/[fa]/[Bd]/ | %249
!p! !>![ce]2"_cresc." !>![ce]2 | !>![ce]2!f! A/c/c/=G/ | .[GAcg]!f!.[FAcf] F/A/A/E/ | %252
 .[EFAe]!f!.[DFAd]!>(! D/F/F/C/ | C/F/!>)!!p! .[_B,DF].[A,CF].[B,DF] | %254
 [A,CF]!<(! (3C/D/^D/ .E.[B,E^G]!<)! | [^CEA]!p! z z2 | z2!p! [A^c]/[Bd]/[Bd]/[ce]/ | %257
!<(! !>!e2 !>!e2 | !>!e2 !>!e2!<)! |!p! _b/d'/f'/a/ f/^g/=b/e/ | [^c'e']2 [A^c]/[Bd]/[Bd]/[ce]/ | %261
!p! !>!e2 !>!e2 | !>!e2 !>!e2 |!p! _b/d'/f'/a/ f/^g/=b/e/ | b/^c'/e'/a/ !>!f/^g/b/e/ | %265
"_cresc.   e" b/^c'/e'/a/[Q:1/4=130]"_stringendo" !>!f/^g/b/e/ | b/^c'/e'/a/ !>!f/^g/b/e/ | %267
 !>!f/^g/b/e/ !>!f/g/b/e/ |!f![Q:1/4=136] !>!b/^c'/e'/a/ ^f/a/c'/e/ | !>!B/^c/e/A/ !>!^F/A/c/E/ | %270
 !>!B,/^C/E/A,/[I:staff +1] !>!^F,/A,/^C/E,/ |[Q:1/4=142] !>!^F,/A,/^C/E,/ !>!F,/A,/C/E,/ | %272
 !>!=F,/A,/=C/E,/ (5:4:5!>!F,/A,/C/E,/^F,/ | %273
[Q:1/4=118]"^rit." (22:16:22^G,/4A,/4B,/4!<(![I:staff -1]C/4D/4E/4^F/4^G/4A/4B/4c/4d/4e/4^f/4^g/4a/4b/4c'/4d'/4e'/4^f'/4^g'/4!<)! | %274
!ff! a'[Q:1/4=118]"^a tempo" z z2 | z4 | z4 | z4 | z4 | z4 | z4 | z4 | %282
!p! (3z/!<(! C/E/(3A/c/B/{AB} (3A/^G/B/!<)!!mp!.[df] | %283
!p! (3z/!<(! C/E/(3A/c/B/{AB} (3A/^G/B/!<)!!mp!.[df] | %284
!p! (6:4:6z/!<(! ^G/B/d/f/e/{de} (3d/^c/e/!<)!!mf!.[=g_b] | %285
!p! (6:4:6!>!e/f/e/d/a/A/ (6:4:6!>!=c/d/c/=B/f/F/ | %286
!p! (6:4:6z/!<(! c/e/a/c'/b/{ab} (3a/^g/b/!<)!!mf!.[d'f'] | %287
!p! (6:4:6z/!<(! c/e/a/c'/b/{ab} (3a/^g/b/!<)!!mf!.[d'f'] | %288
!p! (6:4:6z/!<(! ^g/b/d'/f'/e'/{d'e'} (3d'/^c'/e'/!<)!!mf!.[=g'_b'] | %289
!p! (6:4:6!>!e'/^f'/e'/d'/a'/a/ (6:4:6=c'/d'/c'/=b/=f'/=f/ | %290
 (6:4:6b/c'/b/a/e'/e/ (6:4:6_e/_b/e/d/b/d/ | %291
!<(! (6:4:6^c/_b/c/d/b/!<)!!mp!d/ (6:4:6_e/!>(!b/e/^c/a/c/!>)! | %292
!p! (6:4:6=e/f/e/d/a/A/ (6:4:6_b/f'/b/a/f'/a/ | (6:4:6^g/f'/g/a/f'/a/ (6:4:6_b/f'/b/^g/e'/g/ | %294
 (6:4:6=b/^c'/b/a/e/e'/ (6:4:6b/a/e/B/A/G/ |"^marcato" !>!^c2 !>!=c2 | !>!B2 !>!^B2 | %297
 !>!^c2 !>!^B2 | !>!^c2"_cresc." !>!^f2 | !>!^f2 !>!=f2 | !>!e2 !>!^e2 | %301
!f![Q:1/4=98] [^F^Gd^f]/z/4[Bb]/4[Bb] z/ [^D^d]/[Ee]/[^E^e]/ | %302
!f! [^FA=d^f]/z/4[dd']/4[dd'] z/ [^D^d]/[=E=e]/[^E^e]/ | %303
 [^FB=d^f]/z/4[f^f']/4!fermata![ff']- (6:4:6[ff']/[Q:1/4=124]^e'/f'/d'/b/^g/ | %304
 (6:4:6^e/^f/d/B/^G/^E/ (6:4:6^F/D/B,/^G,/^F,/=E,/ |[Q:1/4=98] x z [^CEA^c] z | %306
 [^cea^c'] z z[Q:1/4=108] .[^Cc] | .[^CB].[C^G]/.[CB]/ .[CB].[CA]/.[A,E]/ | %308
 .[A,^G] !fermata![^F,A,D^F]2 .[F,F] | .[^F,E].[F,^C]/.[F,E]/ .[F,E].[F,D]/[I:staff +1].[D,A,]/ | %310
[Q:1/4=98]"_rit."[I:staff -1] z4 | %311
[Q:1/4=108]"_a tempo"!p! x[K:bass] D,/4E,/4^G,/4B,/4 x[K:treble] D/4E/4^G/4B/4 | %312
 D/4E/4^G/4B/4 d/4e/4^g/4b/4 d/4e/4^g/4b/4!8va(! d'/4e'/4^g'/4b'/4!8va)! | %313
 x[K:bass] ^C,/4E,/4=G,/4B,/4 x[K:treble] ^C/4E/4=G/4B/4 | %314
 x ^c/4e/4g/4b/4 x!8va(! ^c'/4e'/4g'/4b'/4!8va)! | %315
[K:bass] x E,/4^F,/4^A,/4^C/4 x[K:treble] E/4^F/4^A/4^c/4 | %316
 x e/4^f/4^a/4^c'/4 x!8va(! e'/4^f'/4^a'/4^c''/4!8va)! | %317
 x[K:bass] ^D,/4^F,/4=A,/4^C/4 x[K:treble] ^D/4^F/4=A/4^c/4 | %318
 x ^d/4^f/4a/4^c'/4 x!8va(! ^d'/4^f'/4a'/4^c''/4!8va)! | %319
 x[K:bass] _G,/4_A,/4=C/4_E/4 x[K:treble] _G/4_A/4=c/4_e/4 | %320
"_cresc." x[K:bass] F,/4_A,/4_C/4_E/4 x[K:treble] F/4_A/4_c/4_e/4 | %321
 x[K:bass] _A,/4_B,/4=D/4F/4 x[K:treble] _A/4_B/4=d/4f/4 | %322
 x[K:bass] G,/4_B,/4_D/4F/4 x[K:treble] G/4_B/4_d/4f/4 | x _B,/4C/4=E/4G/4 x _B/4c/4=e/4g/4 | %324
 x A,/4C/4_E/4G/4 x A/4c/4_e/4g/4 |!ff! x[K:bass] C,/4D,/4^F,/4A,/4 x[K:treble] C/4D/4^F/4A/4 | %326
 x c/4d/4^f/4a/4 x c'/4d'/4^f'/4a'/4 | %327
[Q:1/4=114]"_sostenuto\ncon fuoco\n" !arpeggio![_Bgd'] z (5:4:5[gg']/[^f^f']/[=f=f']/[ee']/[_e_e']/ | %328
 [dd'] z [_Bg_b]/[cac']/[cac']/[dbd']/ | %329
 [_e_bd'_e'] z/ [aa']/ (5:4:5[_a_a']/[gg']/[^f^f']/[=f=f']/[=e=e']/ | %330
 [_e_e'] z [d_bd']/[cac']/[cac']/[_Bgb]/ | %331
 [_eac'_e'] z/ [_b_b']/ (6:4:6[aa']/[_a_a']/[gg']/[^f^f']/[=f=f']/[=e=e']/ | %332
 [_e_e'] z [cac']/[dbd']/[dbd']/[_ec'_e']/ | %333
!fff![Q:1/4=94] (6:4:6[^fc'_e'^f']/!8va(!!fermata![e'_e'']/[d'd'']/[^c'^c'']/[=c'=c'']/[=b=b']/ (6:4:6[_b_b']/[aa']/[_a_a']/[gg']/[f^f']/[=f=f']/!8va)! | %334
 (6:4:6[=e=e']/[_e_e']/[Q:1/4=74]"_poco rit. e dim."!>(![dd']/[^c^c']/[=c=c']/[=B=b]/ (6:4:6[_B_b]/[=A=a]/[Q:1/4=64][_A_a]/[Gg]/[^F^f]/[=F=f]/!>)! | %335
!p![Q:1/4=114]"^a tempo" [=EAc=e] z z2 | z4 | z4 | z4 | z4 | z4 | z4 | z4 | z4 | z4 | z4 | z4 | %347
 z4 | z4 | z4 | z4 | z4 | z4 | z4 | z4 | z4 | z4 !fermata!z2 | %357
 z!ff!!8va(! [^d'^d'']/[e'e'']/ [e'e'']/[f'f'']/[aa']/[_b_b']/ | %358
 [_b_b']/[=b=b']/[^d^d']/[ee']/ [ee']/[ff']/!8va)![Aa]/[_B_b]/ | %359
 [_B_b]/[=B=b]/[^D^d]/[Ee]/ [Ee]/[Ff]/[A,A]/[_B,_B]/ | %360
 [_B,_B]/[=B,=B]/[^D,^D]/[E,E]/ [E,E]/[F,F]/[A,A]/[B,B]/ | %361
 [Ee]/[Ff]/[Aa]/[Bb]/ [ee']/[ff']/[aa']/[bb']/ |!8va(! [f'f''] z!8va)![K:bass] !>!E,2 | %363
[K:treble]!ff! [^fabd'^f']4 | z4 z/ z/4!8va(! [^e'^e'']/4z/4[e'e'']/4z/4[^f'^f'']/4 | %365
 !>![^f'^g'b'd''^f'']/z/4[^c'^c'']/4z/4[c'c'']/4z/4[d'd'']/4 !>![d'f'g'b'd'']/z/4[^a^a']/4z/4[aa']/4z/4[bb']/4 | %366
 !>![bd'^f'^g'b']/z/4[^e^e']/4z/4[ee']/4z/4[^f^f']/4 [f^gbd'f']/z/4[^c^c']/4z/4[cc']/4z/4[dd']/4 | %367
 !>![d^f^gbd']/!8va)!z/4[^A^a]/4z/4[Aa]/4z/4[Bb]/4 !>![Bdfgb]/z/4[^E^e]/4z/4[Ee]/4z/4[^F^f]/4 | %368
 !>![^F^GBd^f]/z/4[^C^c]/4z/4[Cc]/4z/4[Dd]/4 !>![DFGBd]/z/4[^A,^A]/4z/4[A,A]/4z/4[B,B]/4 | %369
[Q:1/4=94]"_rit." !>![B,D^F^GB]!>!^G, !>![D=F=GB]!>!=G, | %370
[Q:1/4=84] !>![^D^F=AB]!>!^F, !>![=D=FAB]!>!=F, | %371
[Q:1/4=74] [DE^GB][K:bass]!fermata!E,,- (15:2:15E,,^G,,B,,E,^G,B,[K:treble]E^GBe^gb!8va(!e'^g'b' | %372
[Q:1/4=114] .e''!8va)! z z2 | !fermata!z4 ||[K:A][M:3/4]!p![Q:1/4=280]"^Quasi presto" z6 | z6 | %376
 z6 | z6 | z2 [Ac][Bd][Bd][ce] | !>![Bde]4 x2 | !>![Bde]4 x2 | !>![Bde]4 x2 | %382
 [ce]2 [Ac][Bd][Bd][ce] | !>![cef]4 x2 | !>![cef]4 x2 | !>![cef]4 x2 | [df]2 [Bd][ce][ce][df] | %387
 [ea]!p![ea] .[Ac]2 [ea]2 | [fa]2 [df][eg][eg][fa] | [gc']!p![gc'] .[c^e]2 .[gc']2 | %390
 [ac']2 [fa][gb][gb][ac'] | [c'^d'f']!p![c'd'f'] .[fa]2 [b=d'=f']!p![bd'f'] | [=fa]2 E!p!B!<(!ee | %393
 be'!8va(!e'b' e''2!<)!!8va)! |!f! z2 [Ac][Bd][Bd][ce] | .[A=c=g]2 .[=FAc]2 .[Acf]2 | %396
 .[_Bd=f]2 .[=FBd]2 .[Bdf]2 |!p! z2!8va(! [^g'=b']2 [=f'g']2 |!<(! [d'=f']2 [bd']2 [gb]2!8va)! | %399
 [=fg]2 [df]2 [Bd]2!<)! |!f! z2 [A^c][Bd][Bd][ce] | .[A=c=g]2 .[=FAc]2 .[Acf]2 | %402
 .[_Bd=f]2 .[=FBd]2 .[Bdf]2 |!p! z2!8va(! [^g'=b']2 [=f'g']2 |!<(! [d'=f']2 [bd']2 [gb]2!8va)! | %405
 [=fg]2 [df]2 [Bd]2!<)! |!ff! z2 [A^c][Bd][Bd][ce] | .[A=c=g]2 .[=FAc]2 .[Acf]2 | %408
 .[_Bd=f]2 .[=FBd]2 .[Bdf]2 | [^G=Be]2 [EGB]2 [GBe]2 | [A^ce]2 [EAc]2 [Ace]2 | %411
 [^FAd]2 [DFA]2 [FAd]2 | [^GBd]2 [DGB]2 [GBd]2 | [^EGc]2 [CEG]2 [EGc]2 | .[FAc]2 .[CFA]2 .[FAd]2 | %415
!f! .[DFA]2 .[=GBd]2!f! .[DGB]2 | .[=G_B_e]2!f! .[_EGB]2 .[_A=ce]2 | %417
!f! .[_E_A=c]2 .[^G=B=e]2!f! .[=EGB]2 |!f! .[=A^ce]2 .[EAc]2 .[A^B=f]2 | .[EAce]2!f! .E2 z2 | %420
 .[^FAc^f]2!f! .F2 z2 | [FBdf]2!f! .F2 z2 | [Gdeg]2!f! .G2 z2 | [Acea]2!f! .A2 z2 | %424
 [_Bda_b]2!f! .B2 z2 | [=B^da=b]2!f! .B2 z2 | [=degbd']2!f! .e2 z2 |!8va(! [ac'e'a']2!f! .a2 z2 | %428
 [_bd'a'_b']2!f! .b2 z2 | [=b^d'a'=b']2!f! .b2 z2 | [=d'e'g'b'd'']2!f! .e'2 z2 | %431
 =g'!f!e'=c'e'g'e'' | [e'^g'b'e'']2!f! e'2 z2 | =g'!f!e'=c'e'g'e'' | [e'^g'b'e'']2!f! e'2 z2 | %435
 =g'!f!e'=c'e'g'e'' | =g'!f!e'=c'e'g'e'' | =g'!f!e'=c'e'g'e'' | =g'!f!e'=c'e'g'e'' | %439
[Q:1/4=200] ^g'!f!e'c'e'g'e'' | (9:6:9d''^c''b'a'g'f'e'd'^c'!8va)! | %441
[Q:1/4=150]"_rit." (9:6:9bagf[Q:1/4=120]edcBA | %442
[Q:1/4=90] (13:12:13G/F/E/D/C/[I:staff +1]B,/A,/G,/F,/[Q:1/4=60]E,/D,/C,/B,,/ || %443
[M:4/4][Q:1/4=92]"^Andante maestoso"!fff![I:staff -1] x4 a' z z2 | %444
 x/4[K:bass] x/4 x/ x/ x/4[K:treble] x/4 .[bd'g'] z x/4[K:bass] x/4 x/ x/ x/4[K:treble] x/4 .[bd'f'] z | %445
 x4!8va(! [a'c''e'']!8va)! z z2 |[K:bass] x2 x[K:treble] x =g' z z2 | %447
[K:bass] (12:8:12F,/^A,/C/F/[K:treble]^A/c/f/^a/c'/!8va(!f'/^a'/c''/ f''!8va)! z z2 | x8 | %449
[I:staff +1] (12:8:12B,,/^D,/F,/B,/[I:staff -1]^D/F/B/^d/f/b/^d'/f'/ [d'b'] z [^C^c]2 | %450
 =d2 d' z !>![c^egc']2 !>![Bb]2 | !>![Ac^ea]2 !>![^Ee]2 !>![FABf]2 !>![B,B]2 | %452
 !>![=E=e]2 !>![E,E]2 !>![Ee]2 !>![ee']2 | %453
[Q:1/4=80]"_rit." !>![ee']2 !>![ee']2 !>![Ee]2 !>![E,E]2 | %454
[Q:1/4=92]"^a tempo"!fff! (6:4:6[eac'e'][eac'e'][eac'e'][eac'e'][eac'e'][eac'e'] (6:4:6!>![ac'e'a']!>![ac'e'a']!>![ac'e'a'][Q:1/4=80]"_rit."!>![ac'e'a']!>![ac'e'a']!>![ac'e'a'] | %455
 (3!>![=gbe'=g']2 !>![ee']2 !>![gg']2 (3!>![fgbd'f']2 !>![dd']2 !>![ff']2 | %456
[Q:1/4=92] !>![eac'e']4 !>![aa']4[Q:1/4=80] | %457
[K:bass]!ff! (38:8:38!>!E,,F,,=G,,A,,B,,C,D,E,F,=G,A,B,[K:treble]CDEF=GABcdef=ga!8va(!bc'd'e'f'=g'a'b'c''d''e''f''=g'' | %458
 a''2!8va)! z2!fff![Q:1/4=60] [Adfa]2 z2 |[Q:1/4=80] [ceac']2 z2 z4 | [Acea]2 z2 [Acea]2 z2 | %461
!ff! !fermata!C8- | C z z2 z4 |] %463
V:2
 z4 | z4 | z4 | z4 |!ped! (13:8:13F,,,/B,,,/F,,/B,,/^D,/A,/B,/[K:treble]^D/A/B/^d/a/b/ | %5
 ^d' z[K:bass] [F,B,^D]!ped-up!!ped!.[E,,E,] |[K:treble] [CEAc] z z2!ped-up! | %7
[K:bass]!ped! [E,B,D^G] z z2!ped-up! | x4 |!p! .[A,,E,].[E,C].[A,,E,].[E,C] | %10
 .[A,,E,].[E,D].[A,,E,].[E,D] | .[A,,E,].[E,D].[A,,E,].[E,D] | .[A,,E,].[E,C].[A,,E,].[E,C] | %13
 .[A,,E,].[E,C] A,/C/C/=G,/ | .[C,,C,].[F,,F,] F,/A,/A,/E,/ | .[A,,,A,,].[D,,D,] D,/F,/F,/C,/ | %16
 C,/F,/ .[_B,,F,].[F,,F,].[B,,F,] | [F,,F,] (3C,/D,/^D,/ .E,.[E,,E,] | %18
 .[A,,E,].[E,^C].[A,,E,].[E,C] | .[A,,E,].[E,^C].[A,,E,].[E,C] | .[A,,G,].[E,^C].[A,,G,].[E,C] | %21
 .[A,,G,].[E,^C].[A,,G,].[E,C] | [A,,F,][F,D][A,,E,][E,D] | [A,,E,][E,^C] z2 | %24
 .[A,,G,].[E,^C].[A,,G,].[E,C] | .[A,,G,].[E,^C].[A,,G,].[E,C] | [A,,F,][F,D] [A,,E,][E,D] | %27
 A,,[E,^C] [^G,D]2 | A,,[E,^C] [^G,D]2 | A,,[E,^C] [^G,D]2 | [^G,D]2 [G,D]2 | %31
!ped! !arpeggio![A,,E,A,^C] z z2 | z2!ped-up! !>!^F,/A,/^C/E,/ | %33
!ped! !>!B,,/^C,/!ped-up!E,/A,,/!ped! !>!^F,,/A,,/!ped-up!^C,/E,,/ | %34
!ped! !>!^F,,/A,,/!ped-up!^C,/E,,/!ped! !>!F,,/A,,/!ped-up!C,/E,,/ | %35
!ped! !>!=F,,/A,,/!ped-up!=C,/E,,/!ped! (5:4:5!>!F,,/A,,/C,/!ped-up!E,,/^F,,/ | %36
!ped! (22:16:22^G,,/4A,,/4B,,/4C,/4D,/4E,/4^F,/4^G,/4A,/4B,/4C/4D/4E/4[K:treble]^F/4^G/4A/4B/4c/4d/4e/4^f/4^g/4!ped-up! | %37
 a z z2 |[K:bass] z4 | z4 | z4 | z4 | z4 | z4 | z4 |!ped! .A,,.[E,A,C]!ped-up!!ped! C!ped-up!.B, | %46
!ped! .A,,.[E,A,C]!ped-up!!ped! C!ped-up!.B, |!ped! .A,,.[^G,DF] D!ped-up!.^C | %48
!ped! .[F,A,E].A,,!ped-up!!ped! [F,^G,D].A,,!ped-up! | %49
[K:treble]!ped! .A,.[EAc]!ped-up!!ped! !>!c!ped-up!.B | .A,.[EAc] !>!c.B | .A,.[^Gdf] !>!d.^c | %52
 .[^FAe].A, .[=F^Gd].A, | .[EAc].A, [_B,=G]2- | [B,G]3 [A,=EG] | [A,F]D, ^G!p!A | _BA^G .[E=Bd] | %57
 .[Ec].A, z2 | %58
[K:bass]!ped! (6:4:6A,,/^F,/C/[I:staff -1]E/^F/c/!ped-up!!ped![I:staff +1] (6:4:6D,,/F,/C/[I:staff -1]_E/F/c/!ped-up! | %59
!ped![I:staff +1] (6:4:6A,,/^F,/C/[I:staff -1]E/^F/c/!ped-up!!ped![I:staff +1] (6:4:6=D,,/F,/C/[I:staff -1]^D/F/c/!ped-up! | %60
!ped![I:staff +1] (6:4:6A,,/^F,/C/[I:staff -1]E/^F/c/!ped-up!!ped![I:staff +1] (6:4:6=D,,/F,/C/[I:staff -1]^D/F/c/!ped-up! | %61
!ped![I:staff +1] (6:4:6A,,/^F,/C/[I:staff -1]E/^F/c/!ped-up!!ped![I:staff +1] (6:4:6D,,/F,/C/[I:staff -1]A/c/e/!ped-up! | %62
!ped![I:staff +1] (6:4:6D,/B,/=F/[I:staff -1]A/B/=f/!ped-up!!ped![I:staff +1] (6:4:6G,,/B,/F/[I:staff -1]_A/B/f/!ped-up! | %63
!ped![I:staff +1] (6:4:6D,/B,/F/[I:staff -1]A/B/f/!ped-up!!ped![I:staff +1] (6:4:6=G,,/B,/F/[I:staff -1]^G/B/f/!ped-up! | %64
!ped![I:staff +1] [D,A,B,F]2!ped-up! z2 |!ped! [C,A,CF]2!ped-up! z2 |!ped! [B,,F,A,D]2 z2 | %67
 [G,,D,F,B,]2 z2!ped-up! |!ped! [C,,G,,C,] z [C,G,C] z | %69
[K:treble] [CGc] z z!ped-up![K:bass] .[CE] | [B,D].[G,B,]/.[B,D]/ [B,D].[A,C]/.[E,G,]/ | %71
 .[G,B,] !tenuto![F,,C,F,]2 .[F,A,] | [E,G,].[C,E,]/.[E,G,]/ [E,G,].[D,F,]/.[A,,C,]/ | %73
 .[C,E,]!ped! [B,,D,]2 [A,,D,]!ped-up! |!ped! G,,,/G,,/ x F,/4G,/4B,/4D/4 x | %75
[K:treble] F/4G/4B/4d/4 x f/4g/4b/4d'/4 x!ped-up! |[K:bass]!ped! G,,,/G,,/ x E,/4G,/4_B,/4D/4 x | %77
[K:treble] E/4G/4_B/4d/4 x e/4g/4_b/4d'/4 x!ped-up! |[K:bass]!ped! A,,,/A,,/ x G,/4A,/4^C/4E/4 x | %79
[K:treble] G/4A/4^c/4e/4 x g/4a/4^c'/4e'/4 x!ped-up! | %80
[K:bass]!ped! A,,,/A,,/ x ^F,/4A,/4=C/4E/4 x | %81
[K:treble] ^F/4A/4c/4e/4 x ^f/4a/4c'/4e'/4 x!ped-up! | %82
[K:bass]!ped! B,,,/B,,/ x A,/4B,/4^D/4^F/4 x!ped-up! | %83
!ped! ^G,,,/^G,,/ x ^G,/4B,/4=D/4^F/4 x!ped-up! |!ped! ^C,,/^C,/ x B,/4^C/4^E/4^G/4 x!ped-up! | %85
!ped! _B,,,/_B,,/ x[K:treble] _B,/4_D/4_F/4_A/4 x!ped-up! | %86
[K:bass]!ped! _E,,/_E,/ x[K:treble] _D/4_E/4G/4_B/4 x!ped-up! | %87
[K:bass]!ped! C,,/C,/ x[K:treble] C/4_E/4_G/4_B/4 x!ped-up! | %88
[K:bass]!ped! F,,,/F,,/ x ^D,/4F,/4=A,/4C/4 x | %89
[K:treble] ^D/4F/4A/4c/4 z ^d/4f/4a/4c'/4 z!ped-up! |[K:bass] z4 | z4 | z4 | z4 | z4 | z4 | z4 | %97
 z4 | z4 | z4 | z4 | z4 |[K:treble]!ped! [EAce]2[K:bass] [E,A,CE]2 | %103
 [E,,A,,C,E,]2!ped-up! [C,,C,]/[B,,,B,,]/[B,,,B,,]/[A,,,A,,]/ |!ped! !>![E,F,A,C]4!ped-up! | %105
!ped! !>![E,^F,A,C]4!ped-up! |[K:treble] [B,D=FA]4 | !fermata![E,,,E,,]2!ped! x2 | x4 | x4 | x4 | %111
 x4 | x4 | x4 | x4!ped-up! x2 |!ped! E,,, [E,,B,,E,] [E,B,E][K:treble] [EBe] | %116
 x2 x/4[K:bass] x/4 x/4 x/4 x!ped!!ped-up! |!ped! [A,,,A,,][F,A,B,DF] [A,,,A,,]!ped-up![F,A,B,DF] | %118
!ped! [A,,,A,,][F,A,B,DF] z2!ped-up! |!ped! [A,,,A,,][E,A,CE]!ped-up! [A,,,A,,][E,A,CE] | %120
!ped! [A,,,A,,][E,A,CE] z2!ped-up! |!ped! !>![A,,,A,,]!ped-up![F,_B,DF] (3E/F/_B/D | %122
!ped! (3C/D/F/_B, (3A,/B,/D/^G,!ped-up! |!ped! !>![A,,,A,,][=G,_B,^CE=G] (3F/G/_B/E!ped-up! | %124
!ped! (3D/E/G/^C (3_B,/C/E/A,!ped-up! |!ped! !>![A,,,A,,][F,A,DF][K:treble] (3G/A/d/F!ped-up! | %126
!ped! (3E/F/A/D (3=C/D/F/=B,!ped-up! | %127
[K:bass]!ped! [A,,,A,,][^G,DF^G][K:treble] (3A/B/d/^G!ped-up! | %128
!ped! (3F/^G/B/E (3C/D/F/B,!ped-up! |[K:bass]!ped! (3A,/B,/D/^G, (3F,/G,/B,/E,!ped-up! | %130
!ped! (3C,/D,/F,/B,, (3A,,/B,,/D,/^G,,!ped-up! | %131
!ped! (3F,,/^G,,/B,,/E,, (3=G,,/^G,,/B,,/^F,,!ped-up! | %132
!ped! (3^F,,/^G,,/B,,/=F,, (3F,,/G,,/B,,/E,,!ped-up! | %133
!ped! !>!F,>E,!ped-up!!ped! !>!=G,>^F,!ped-up! |!ped! !>!^F,>=F,!ped-up!!ped! !>!F,>E,!ped-up! | %135
!ped! z [E,,E,][K:treble]!>![DE^GB] z!ped-up! |!ped! x4!ped-up! | x4 | %138
!ped! !tenuto!.[=f^gd'] z[K:bass]!ped-up!!ped! !tenuto!.[E,,B,,D,E,]2!ped-up! | %139
!ped! !tenuto!.[A,,,A,,] z z2!ped-up! | z4 | z4 | z4 | z4 | z4 | z4 | z4 | z4 | z4 | z4 | z4 | z4 | %152
 z4 | z4 | z4 | z4 | z4 | z4 | z4 | z4 | z4 | z4 | z4 | z4 | z4 | z4 | z4 | z4 | z4 | z4 | z4 | %171
!pp!!ped! (6:4:6F,,C,F,!ped-up!A,[I:staff -1]CF | (6:4:6AFC[I:staff +1]A,F,C, | %173
!ped! (6:4:6F,,C,G,_B,CE!ped-up! |[I:staff -1] (6:4:6GEC[I:staff +1]_B,G,C, | %175
!ped! (6:4:6F,,C,F,A,C[I:staff -1]F!ped-up! | (6:4:6AFC[I:staff +1]A,F,C, | %177
!ped! (6:4:6C,,_A,,C,_E,_A,C!ped-up! | (6:4:6_EC_A,!ped-up!!ped!_E,C,=A,, | %179
!ped! (6:4:6D,,A,,B,,^F,A,D!ped-up! | (6:4:6^FDA,^F,D,A,, |!ped! (6:4:6=F,,C,D,=F,_A,C!ped-up! | %182
 (6:4:6DC_A,F,D,C, |!ped! (6:4:6G,,D,G,!ped-up!=B,[I:staff -1]DG | (6:4:6BGD[I:staff +1]B,G,D, | %185
!ped! (6:4:6G,,D,=E,_B,[I:staff -1]D=E!ped-up! | (6:4:6_BED[I:staff +1]_B,E,D, | %187
!ped!"_cresc." (6:4:6G,,D,E,_B,[I:staff -1]DE!ped-up! | (6:4:6_BED[I:staff +1]_B,E,D, | %189
!mf!!ped! (6:4:6C,,C,G,_B,[I:staff -1]DE!ped-up! | (6:4:6_BED[I:staff +1]_B,G,C, | %191
!pp!!ped! (6:4:6C,,C,_G,_B,_D_G!ped-up! |[I:staff -1] (6:4:6_B_G_D[I:staff +1]_B,=G,C, | %193
!pp!!ped! (6:4:6F,,C,F,!ped-up!=A,[I:staff -1]CF | (6:4:6AFC[I:staff +1]A,F,C, | %195
!ped! (6:4:6F,,C,G,_B,CE!ped-up! | (6:4:6GEC_B,G,C, |!ped! (6:4:6F,,C,F,A,[I:staff -1]CF!ped-up! | %198
 (6:4:6AFC[I:staff +1]A,F,C, |!ped!!<(! (6:4:6C,,_A,,C,_E,_A,C!ped-up! | %200
 (6:4:6_EC_A,_E,C,=A,,!<)! |!mf!!>(!!ped! (6:4:6D,,A,,D,^F,A,!ped-up!!>)!!pp!D | %202
 (6:4:6^FDA,^F,D,A,, |!ped!!<(! (6:4:6=F,,C,D,!ped-up!=F,_A,C | (6:4:6DC_A,F,D,C,!<)! | %205
!mf!!ped! (6:4:6G,,!>(!D,G,=B,!ped-up![I:staff -1]DG | (6:4:6BGD[I:staff +1]B,G,D,!>)! | %207
!pp!!ped! (6:4:6G,,D,=E,_B,[I:staff -1]D"_cresc."E!ped-up! | (6:4:6_BED[I:staff +1]_B,E,D, | %209
!mp!!ped!!>(! (6:4:6A,,,A,,G,^C[I:staff -1]G!ped-up!A!>)! | %210
!p!!ped!"_dim."[I:staff +1] (6:4:6_B,,F,_B,[I:staff -1]DF_B!ped-up! | %211
!ped![I:staff +1] (6:4:6^C,G,_B,[I:staff -1]EG_B!ped-up! | %212
!ped![I:staff +1] (6:4:6D,G,=B,[I:staff -1]FG=B!ped-up! | %213
!mf![I:staff +1] (6:4:6z E,_B,D[I:staff -1]G_B |[I:staff +1] (6:4:6z F,_D[I:staff -1]F_A_d | %215
[I:staff +1] (6:4:6z"_dim." ^C,G,_B,[I:staff -1]=EG | %216
[I:staff +1] (6:4:6z =C,F,=A,_E[I:staff -1]=A | %217
!ped![I:staff +1] (6:4:6z _B,,^F,G,D[I:staff -1]G!ped-up! | %218
[I:staff +1] (6:4:6z!ped! C,,C,G,_B,D!ped-up! |!pp!!ped! (6:4:6z F,,C,F,A,C!ped-up! | %220
 (6:4:6FCA,F,C,F,, |!ped! (6:4:6C,,G,,C,_E,G,_B,!ped-up! | (6:4:6D_B,G,_E,C,G,, | %223
!ped! (6:4:6F,,C,F,A,[I:staff -1]CF!ped-up! | (6:4:6AFC[I:staff +1]A,F,C, | %225
!ped! (6:4:6C,,G,,C,_E,G,_B,!ped-up! | (6:4:6D_B,G,_E,C,G,, | %227
!ped! (6:4:6F,,C,F,A,C[I:staff -1]F!ped-up! | (6:4:6AFC[I:staff +1]A,F,C, | %229
 (6:4:6F,,C,F,A,C[I:staff -1]F | (6:4:6AFC[I:staff +1]A,F,C, | (6:4:6C,F,A,[I:staff -1]CFA | %232
[I:staff +1] x4 | x4 | z4 |[K:treble] !arpeggio![Acfa]2 z2 | z4 | !arpeggio![Acfa]2 z2 | %238
 !fermata!z4 ||[K:bass] z4 | z4 | z4 | z4 | z4 | z4 | .[A,,E,]!>(!.[E,C].[A,,E,].[E,C]!>)! | %246
!p! .[A,,E,].[E,C].[A,,E,].[E,C] | .[A,,E,].[E,D].[A,,E,].[E,D] | .[A,,E,].[E,D].[A,,E,].[E,D] | %249
 .[A,,E,].[E,C].[A,,E,].[E,C] | .[A,,E,].[E,C] A,/C/C/=G,/ | .[C,,C,].[F,,F,] F,/A,/A,/E,/ | %252
 .[A,,,A,,].[D,,D,] D,/F,/F,/C,/ | C,/F,/ .[_B,,F,].[F,,F,].[B,,F,] | %254
 [F,,F,] (3C,/D,/^D,/ .E,.[E,,E,] | .[A,,E,].[E,^C].[A,,E,].[E,C] | .[A,,E,].[E,^C].[A,,E,].[E,C] | %257
 .[A,,G,].[E,^C].[A,,G,].[E,C] | .[A,,G,].[E,^C].[A,,G,].[E,C] | [A,,F,][F,D][A,,E,][E,D] | %260
 [A,,E,][E,^C] z2 | .[A,,G,].[E,^C].[A,,G,].[E,C] | .[A,,G,].[E,^C].[A,,G,].[E,C] | %263
 [A,,F,][F,D] [A,,E,][E,D] | A,,[E,^C] [^G,D]2 | A,,[E,^C] [^G,D]2 | A,,[E,^C] [^G,D]2 | %267
 [^G,D]2 [G,D]2 |!ped! !arpeggio![A,,E,A,^C] z z2!ped-up! | z2 !>!^F,/A,/^C/E,/ | %270
!ped! !>!B,,/^C,/E,/!ped-up!A,,/!ped-up!!ped! !>!^F,,/A,,/^C,/E,,/ | %271
!ped! !>!^F,,/A,,/^C,/!ped-up!E,,/!ped! !>!F,,/A,,/!ped-up!C,/E,,/ | %272
!ped! !>!=F,,/A,,/=C,/!ped-up!E,,/!ped! (5:4:5!>!F,,/A,,/C,/!ped-up!E,,/^F,,/ | %273
!ped! (22:16:22^G,,/4A,,/4B,,/4C,/4D,/4E,/4^F,/4^G,/4A,/4B,/4C/4D/4E/4[K:treble]^F/4^G/4A/4B/4c/4!ped-up!d/4e/4^f/4^g/4 | %274
 a z z2 |[K:bass] z4 | z4 | z4 | z4 | z4 | z4 | z4 |!ped! .A,,.[E,A,C]!ped-up!!ped! C.B, |!ped-up! %283
!ped! .A,,.[E,A,C]!ped-up!!ped! C!ped-up!.B, |!ped! .A,,.[^G,DF] D!ped-up!.^C | %285
!ped! .[F,A,E].A,,!ped-up!!ped! [F,^G,D]!ped-up!.A,, | %286
!ped! .A,,[K:treble].[EAc]!ped-up!!ped! !>!c.B!ped-up! | .A,.[EAc] !>!c.B | .A,.[^Gdf] !>!d.^c | %289
 .[^FAe].A, .[=F^Gd].A, | .[EAc].A, [_B,=G]2- | [B,G]3 [A,=EG] | [A,F]D, ^G!p!A | _BA^G .[E=Bd] | %294
 .[E^c].A, z2 | %295
[K:bass] (6:4:6^F,,/^D,/A,/[I:staff -1]^C/^D/A/[I:staff +1] (6:4:6B,,,/D,/A,/[I:staff -1]=C/D/A/ | %296
[I:staff +1] (6:4:6^F,,/^D,/A,/[I:staff -1]B,/^D/A/[I:staff +1] (6:4:6=B,,,/D,/A,/[I:staff -1]^B,/D/A/ | %297
[I:staff +1] (6:4:6^F,,/^D,/A,/[I:staff -1]^C/^D/A/[I:staff +1] (6:4:6B,,,/D,/A,/[I:staff -1]^B,/D/A/ | %298
[I:staff +1] (6:4:6^F,,/^D,/A,/[I:staff -1]^C/^D/A/[I:staff +1] (6:4:6B,,,/D,/A,/[I:staff -1]^F/A/c/ | %299
[I:staff +1] (6:4:6B,,/^G,/=D/[I:staff -1]^F/^G/=d/[I:staff +1] (6:4:6E,,/G,/D/[I:staff -1]=F/G/d/ | %300
[I:staff +1] (6:4:6B,,/^G,/D/[I:staff -1]E/^G/d/[I:staff +1] (6:4:6=E,,/G,/D/[I:staff -1]^E/G/d/ | %301
!ped![I:staff +1] [B,,^F,^G,D]2 z2!ped-up! |!ped! [A,,^F,A,D]2!ped-up! z2 | %303
!ped! [^G,,D,^F,B,]2!ped-up! z2 | [E,B,D^G]2 z2 |!ped! [^C,E,A,^C] z [A,,E,A,] z!ped-up! | %306
 [A,EA] z z .[A,^C] | .[^G,B,].[E,G,]/.[G,B,]/ .[G,B,].[^F,A,]/.[^C,E,]/ | %308
 .[E,^G,] [D,,A,,D,]2 .[D,^F,] |!>(! .[^C,E,].[A,,C,]/.[C,E,]/ .[C,E,].[B,,D,]/.[^F,,A,,]/ | %310
 .[D,^C]!ped! !>![D,B,]2!ped-up! [D,A,]!>)! |!ped! E,,,/E,,/ x D,/4E,/4^G,/4B,/4 x!ped-up! | x4 | %313
!ped! E,,,/E,,/ x ^C,/4E,/4=G,/4B,/4 x!ped-up! |[K:treble] ^C/4E/4G/4B/4 x ^c/4e/4g/4b/4 x | %315
[K:bass]!ped! ^F,,,/^F,,/ x E,/4^F,/4^A,/4^C/4 x!ped-up! | %316
[K:treble] E/4^F/4^A/4^c/4 x e/4^f/4^a/4^c'/4 x | %317
[K:bass]!ped! ^F,,,/^F,,/ x ^D,/4^F,/4=A,/4^C/4 x!ped-up! | %318
[K:treble] ^D/4^F/4A/4^c/4 x ^d/4^f/4a/4^c'/4 x | %319
[K:bass]!ped! _A,,,/_A,,/ x _G,/4_A,/4=C/4_E/4 x!ped-up! | %320
!ped! F,,,/F,,/ x F,/4_A,/4_C/4_E/4 x!ped-up! |!ped! _B,,,/_B,,/ x _A,/4_B,/4=D/4F/4 x!ped-up! | %322
!ped! =G,,,/G,,/ x G,/4_B,/4_D/4F/4 x!ped-up! | %323
!ped! C,,/C,/ x[K:treble] _B,/4C/4=E/4G/4 x!ped-up! | %324
[K:bass]!ped! =A,,,/A,,/ x[K:treble] A,/4C/4_E/4G/4 x!ped-up! | %325
[K:bass]!ped! D,,,/D,,/ x C,/4D,/4^F,/4A,/4 x!ped-up! |[K:treble] C/4D/4^F/4A/4 x c/4d/4^f/4a/4 x | %327
[K:bass]!ped! (3[D,,D,][K:treble]!f! [_B,DG][B,DG] (3[B,DG][B,DG][B,DG]!ped-up! | %328
 (3[_B,DG][B,DG][B,DG] (3[B,DG][B,DG][B,DG] | %329
[K:bass]!ff!!ped! (3[D,,D,][K:treble]!f! [_B,D_EG][B,DEG]!ped-up! (3[B,DEG][B,DEG][B,DEG] | %330
 (3[_B,D_EG][B,DEG][B,DEG] (3[B,DEG][B,DEG][B,DEG] | %331
[K:bass]!ped! (3D,,[K:treble] [C_EG][CEG]!ped-up! (3[CEG][CEG][CEG] | %332
 (3[C_EG][CEG][CEG] (3[CEG][CEG][CEG] | %333
[K:bass]!ped! (3:2:4!>![D,,D,]/ x/[K:treble]!ff! [C_E^FA][CEFA]!ped-up! (3[CEFA][CEFA][CEFA] | %334
!ped! (6:4:6[C_E^FA]/[K:bass] [_E,_E]/[D,D]/[^C,^C]/!ped-up!!ped![=C,=C]/[=B,,=B,]/!ped-up!!ped! (6:4:6[_B,,_B,]/[=A,,=A,]/!ped-up!!ped![_A,,_A,]/[G,,G,]/[^F,,^F,]/[=F,,=F,]/!ped-up! | %335
 [=E,,A,,C,=E,] z z2 | z4 | z4 | z4 | z4 | z4 | z4 | z4 | z4 | z4 | z4 | z4 | z4 | z4 | z4 | z4 | %351
 z4 | z4 | z4 | z4 | z4 | z4 !fermata!z2 | %357
[K:treble] z [^D^d]/[Ee]/!ped! [Ee]/[Ff]/[A,A]/!ped-up![_B,_B]/ | %358
!ped! [_B,_B]/[=B,=B]/[^D,^D]/[E,E]/!ped-up![K:bass]!ped! [E,E]/[F,F]/[A,,A,]/!ped-up![_B,,_B,]/ | %359
!ped! [_B,,_B,]/[=B,,=B,]/[^D,,^D,]/[E,,E,]/!ped-up!!ped! [E,,E,]/[F,,F,]/[A,,,A,,]/!ped-up![_B,,,_B,,]/ | %360
!ped! [_B,,,_B,,]/[=B,,,=B,,]/[^D,,,^D,,]/[E,,,E,,]/ [E,,,E,,]/[F,,,F,,]/!ped-up![A,,,A,,]/[B,,,B,,]/ | %361
 E,/F,/A,/B,/ E/F/A/B/ |[K:treble] [Ff] z!ped-up![K:bass]!ped! [E,,,E,,]2 |[K:treble] [^FABd]4 | %364
 z4 z/!8va(! [^c^c']/[cc']/[dd']/ | %365
!ped! !>![d^f^gbd']/[^A^a]/[Aa]/!ped-up![Bb]/!ped! !>![Bdfgb]/[^^F^^f]/[Ff]/[^G^g]/!ped-up! | %366
!ped! !>![GBd^f^g]/!8va)![^C^c]/[Cc]/!ped-up![Dd]/!ped! !>![D^F^GBd]/[^A,^A]/!ped-up![A,A]/[B,B]/ | %367
!ped! !>![B,D^F^GB]/[^^F,^^F]/[F,F]/!ped-up![^G,^G]/[K:bass]!ped! !>![^G,B,D^F^G]/[^C,^C]/!ped-up![C,C]/[D,D]/ | %368
!ped! !>![D,^F,^G,B,D]/[^A,,^A,]/[A,,A,]/!ped-up![B,,B,]/!ped! !>![B,,D,F,G,B,]/[^^F,,^^F,]/!ped-up![F,,F,]/[^G,,^G,]/ | %369
!ped! [^G,,B,,D,^F,^G,][^G,,,G,,]!ped-up!!ped! [D,=F,=G,B,]!ped-up![=G,,,=G,,] | %370
!ped! [^D,^F,=A,B,][^F,,,^F,,]!ped-up!!ped! [=D,=F,A,B,][=F,,,=F,,]!ped-up! | %371
 [D,E,^G,B,]!ped!!fermata!E,,,- (15:2:15E,,,B,,,E,,^G,,B,,E,^G,B,E[K:treble]^GBe^gbe'!ped-up! | %372
 .^g' z z2 | !fermata!z4 ||[K:A][M:3/4][K:bass] .[A,,E,]2 .[E,C]2 .[A,,E,]2 | %375
 .[A,,E,]2 .[E,C]2 .[A,,E,]2 | .[A,,E,]2 .[E,C]2 .[A,,E,]2 | .[A,,E,]2 .[E,C]2 .[A,,E,]2 | %378
 .[A,,E,]2 .[E,C]2 .[A,,E,]2 |!ped! .[A,,E,]2 .[E,D]2!ped-up! .[A,,E,]2 | %380
!ped! .[A,,E,]2 .[E,D]2!ped-up! .[A,,E,]2 |!ped! .[A,,E,]2 .[E,D]2!ped-up! .[A,,E,]2 | %382
!ped! .[A,,E,]2 .[E,D]2!ped-up! .[=G,,E,]2 |!ped! [F,,E,]2 [E,^A,]2!ped-up! .[F,,E,]2 | %384
!ped! [F,,E,]2 [E,^A,]2!ped-up! .[F,,E,]2 |!ped! [F,,E,]2 [E,^A,]2!ped-up! .[F,,E,]2 | %386
 [B,,G,]2 [G,D]2 [_B,,G,]2 |!ped! [B,,=G,]2 [G,C]2!ped-up! .[A,,G,]2 | [D,=C]2 [CF]2 .[D,C]2 | %389
!ped! [^C,B,]2 [B,^E]2!ped-up! [C,B,]2 | [F,C]2 [C^DA]2 [F,CD]2 | %391
!ped! [A,,A,]2 [A,^D]2!ped-up!!ped! [=D,A,]2!ped-up! | %392
 [B,=F]2!ped-up!!ped! [E,B,=D^G]2 z[K:treble] E | Beeb e'2 | %394
[K:bass]!ped! [A,,A,]2 [A,CE]2 [=G,,=G,]2!ped-up! |!ped! [=F,,=F,]2 [F,A,=C]2 [_E,,_E,]2!ped-up! | %396
!ped! [D,,D,]2 [D,=F,_B,]2 [_B,,,_B,,]2!ped-up! | %397
!ped! [=E,,=E,]2[K:treble] [D=FG]2 [DFG]2!ped-up! | [D=FG]2 [DFG]2 [DFG]2 | [D=FG]2 [DFG]2 [DFG]2 | %400
[K:bass]!ped! [A,,A,]2 [A,CE]2 [=G,,=G,]2!ped-up! |!ped! [=F,,=F,]2 [F,A,=C]2 [_E,,_E,]2!ped-up! | %402
!ped! [D,,D,]2 [D,=F,_B,]2 [_B,,,_B,,]2!ped-up! | %403
!ped! [=E,,=E,]2[K:treble] [D=FG]2 [DFG]2!ped-up! | [D=FG]2 [DFG]2 [DFG]2 | [D=FG]2 [DFG]2 [DFG]2 | %406
[K:bass]!ped! [A,,A,]2 [A,CE]2 [=G,,=G,]2!ped-up! |!ped! [=F,,=F,]2 [F,A,=C]2 [_E,,_E,]2!ped-up! | %408
!ped! [D,,D,]2 [=F,_B,D]2 [_B,,,_B,,]2!ped-up! |!ped! [=E,,=E,]2 [E,^G,=B,]2 [D,,D,]2!ped-up! | %410
!ped! [^C,,^C,]2 [E,A,C]2 [A,,,A,,]2!ped-up! |!ped! [D,,D,]2 [D,F,A,]2 [C,,C,]2!ped-up! | %412
!ped! [B,,,B,,]2 [D,G,B,]2 [G,,,G,,]2!ped-up! |!ped! [C,,C,]2 [C,^E,G,]2 [B,,,B,,]2!ped-up! | %414
!ped! [A,,,A,,]2 [C,F,A,]2!ped-up!!ped! [=C,,=C,]2!ped-up! | %415
 [D,F,A,]2!ped-up!!ped! [B,,,B,,]2 [D,=G,B,]2 | %416
!ped! [_D,,_D,]2 [_E,=G,_B,]2!ped-up!!ped! [=C,,=C,]2!ped-up! | %417
 [_E,_A,=C]2!ped-up!!ped! [=D,,=D,]2 [=E,^G,=B,]2 |!ped! [^C,,^C,]2 [E,=A,^C]2 [^D,,^D,]2!ped-up! | %419
!ped! [E,,E,]2 [E,A,C]2!ped-up! z2 |!ped! [E,,E,]2 [E,F,^A,C]2!ped-up! z2 | %421
!ped! [E,,E,]2 .[F,B,D]2!ped-up! z2 |!ped! [E,,E,]2 .[G,DE]2!ped-up! z2 | %423
!ped! [A,,A,]2 .[A,CE]2!ped-up! z2 |!ped! [=G,,=G,]2 .[_B,DA]2!ped-up! z2 | %425
!ped! [^F,,^F,]2 .[=B,^DA]2!ped-up! z2 |!ped! [E,,E,]2[K:treble] .[=DEGB]2!ped-up! z2 | %427
[K:bass]!ped! [A,,A,]2 .[A,CE]2!ped-up! z2 |!ped! [=G,,=G,]2 .[_B,DA]2!ped-up! z2 | %429
!ped! [^F,,^F,]2[K:treble] .[=B,^DA]2!ped-up! z2 | %430
[K:bass]!ped! [E,,E,]2[K:treble] .[=DEGB]2!ped-up! z2 |!ped! [E,E]2 .[=G=ce]2!ped-up! z2 | %432
!ped! [E,E]2 .[^GBe]2!ped-up! z2 |!ped! [E,E]2 .[=G=ce]2!ped-up! z2 | %434
!ped! [E,E]2 .[^GBe]2!ped-up! z2 |!ped! =c'=geg!ped-up!c'e' | =c'=gegc'e' | =c'=gegc'e' | %438
 =c'=gegc'e' |!ped! b^gegbe'!ped-up! | (9:6:9d'^c'bagfed^c | (9:6:9BAGFEDCB,A, | %442
[K:bass]!ped! (13:12:13G,/F,/E,/D,/C,/B,,/A,,/G,,/F,,/E,,/D,,/C,,/B,,,/!ped-up! || %443
[M:4/4]!fff!!ped! (12:8:12A,,/C,/E,/A,/[I:staff -1]C/E/A/c/[I:staff +1][K:treble][I:staff -1]e/a/c'/e'/[I:staff +1] x z z2!ped-up! | %444
[K:bass]!ped! [B,,,B,,]/4[I:staff -1]E,/4G,/4D/4[I:staff +1][K:treble]E/4G/4d/4[I:staff -1]g/4[I:staff +1] z2[K:bass]!ped-up!!ped! [G,,,G,,]/4[I:staff -1]D,/4F,/4B,/4[I:staff +1][K:treble]C/4G/4B/4[I:staff -1]f/4[I:staff +1] z2!ped-up! | %445
[K:bass]!ped! (12:8:12A,,/C,/E,/A,/C/[I:staff -1]E/A/c/[I:staff +1][K:treble][I:staff -1]e/a/c'/e'/[I:staff +1] x4!ped-up! | %446
[K:bass]!ped! (12:8:12[E,,,E,,]/B,,/C,/[I:staff -1]=G,/B,/E/[I:staff +1][K:treble]=G/B/e/[I:staff -1]=g/b/e'/[I:staff +1] x4!ped-up! | %447
[K:bass]!ped! (12:8:12[F,,,F,,]/C,/F,/^A,/[K:treble]C/F/^A/c/f/^a/c'/f'/ ^a' z z2!ped-up! | %448
[K:bass]!ped! (12:8:12[=A,,,=A,,]/E,/=A,/[I:staff -1]=C/E/=A/[I:staff +1][K:treble]=c/e/=a/!8va(![I:staff -1]=c'/e'/=a'/ =c''!8va)![I:staff +1] z z2!ped-up! | %449
[K:bass]!ped! (12:8:12B,,,/F,,/B,,/^D,/F,/B,/^D/F/[K:treble]B/^d/f/b/ [B,B]2 z2!ped-up! | %450
[K:bass]!ped! [B,,,B,,]2[K:treble] [Ff]2[K:bass]!ped-up!!ped! (3[B,,,B,,][^E,G,=D][G,D^E] z2!ped-up! | %451
!ped! (3[C,,C,][E,A,C][A,C^E] z2!ped-up!!ped! (3[D,,D,][B,,D,F,][D,F,A,] z2!ped-up! | %452
!ped! !>![=E,,=E,]2 !>![E,,,E,,]2 !>![E,,E,]2!ped-up! !>![E,E]2 | %453
[K:treble] !>![Ee]2 !>![E,E]2[K:bass] !>![E,,E,]2 !>![E,,,E,,]2 | %454
!ped!{/[A,,,C,,E,,A,,]} (6:4:6[E,A,CE][E,A,CE][E,A,CE][E,A,CE][E,A,CE][E,A,CE] (6:4:6!>![A,CEA]!>![A,CEA]!>![A,CEA]!>![A,CEA]!>![A,CEA]!>![A,CEA]!ped-up! | %455
!ped!{/[E,,,E,,]} (3!>![=G,B,E=G]2 !>![E,E]2 !>![G,G]2 (3!>![F,G,B,DF]2 !>![D,D]2 !>![F,F]2!ped-up! | %456
!ped!{/[A,,,A,,]} !>![E,A,CE]4 !>![A,A]4!ped-up! | %457
!ped! (38:8:38!>!E,,,F,,,=G,,,A,,,B,,,C,,D,,E,,F,,=G,,A,,B,,C,D,E,F,=G,A,B,C[K:treble]DEF=GABcdef=gabc'd'e'f'=g'!ped-up! | %458
 a'2 z2[K:bass]!ped!{/[D,,D,]} [F,A,DF]2 z2 | x3/20!ped-up! %459
!ped!{/[A,,,A,,]} [E,A,CE]2 z2 z4!ped-up! | %460
!ped!{/[A,,,A,,]} [E,A,CE]2 z2!ped-up!!ped!{/[A,,,A,,]} [E,A,CE]2 z2 | !fermata![A,,,A,,]8- | %462
 [A,,,A,,] z z2 z4 |] %463
V:3
 x4 | x4 | x4 | x4 | x13/6[K:treble] x37/20 | x2[K:bass] x2 |[K:treble] x4 |[K:bass] x81/20 | %8
 A,,,!>(!.[E,C].[A,,E,].[E,C]!>)! | x4 | x4 | x4 | x4 | x4 | x4 | x4 | x4 | x4 | x4 | x4 | x4 | %21
 x4 | x4 | x4 | x4 | x4 | x4 | x2 F,E, | x2 F,E, | x2 F,E, | F,E, F,E, | x4 | x4 | x4 | x4 | x4 | %36
 x29/12[K:treble] x33/20 | x4 |[K:bass] x4 | x4 | x4 | x4 | x4 | x4 | x4 | x2 [F,D]2 | x2 [F,D]2 | %47
 x2 [=G,E]2 | x4 |[K:treble] x2 [Fd]2 | x2 [Fd]2 | x2 [=Ge]2 | x4 | z2 ^C!p!.D | _ED^C x | %55
 x2 [Fd]2- | [Fd]2 x2 | x4 |[K:bass] x4 | x4 | x4 | x4 | x4 | x4 | x4 | x4 | x4 | x4 | x4 | %69
[K:treble] x3[K:bass] x | x4 | x4 | x4 | x4 | x4 |[K:treble] x4 |[K:bass] x4 |[K:treble] x4 | %78
[K:bass] x4 |[K:treble] x4 |[K:bass] x4 |[K:treble] x4 |[K:bass] x4 | x4 | x4 | x2[K:treble] x2 | %86
[K:bass] x2[K:treble] x2 |[K:bass] x2[K:treble] x2 |[K:bass] x4 |[K:treble] x4 |[K:bass] x4 | x4 | %92
 x4 | x4 | x4 | x4 | x4 | x4 | x4 | x4 | x4 | x4 |[K:treble] x2[K:bass] x2 | x4 | z2 !>![C,,C,]2 | %105
 z2 !>![A,,,A,,]2 |[K:treble] x4 | x4 | x4 | x4 | x4 | x4 | x4 | x4 | x6 | x3[K:treble] x | %116
 x9/4[K:bass] x7/4 | x4 | x4 | x4 | x4 | x2 !>!E.D | !>!C._B, !>!A,^G, | x2 !>!F.E | %124
 !>!D.^C !>!_B,.A, | x2[K:treble] G.F | E.D C.B, |[K:bass] x2[K:treble] !>!A.^G | !>!F.E !>!C.B, | %129
[K:bass] !>!A,.^G, !>!F,.E, | !>!C,.B,, !>!A,,.^G,, | !>!F,,.E,, !>!G,,.^F,, | %132
 !>!^F,,.=F,, !>!F,,.E,, | F,,/^G,,/B,,/E,,/ =G,,/^G,,/B,,/^F,,/ | %134
 ^F,,/^G,,/B,,/=F,,/ F,,/G,,/B,,/E,,/ | x2[K:treble] x2 | x4 | x4 | x2[K:bass] x2 | x4 | x4 | x4 | %142
 x4 | x4 | x4 | x4 | x4 | x4 | x4 | x4 | x4 | x4 | x4 | x4 | x4 | x4 | x4 | x4 | x4 | x4 | x4 | %161
 x4 | x4 | x4 | x4 | x4 | x4 | x4 | x4 | x4 | x4 | x4 | x4 | x4 | x4 | x4 | x4 | x4 | x4 | x4 | %180
 x4 | x4 | x4 | x4 | x4 | x4 | x4 | x4 | x4 | x4 | x4 | x4 | x4 | x4 | x4 | x4 | x4 | x4 | x4 | %199
 x4 | x4 | x4 | x4 | x4 | x4 | x4 | x4 | x4 | x4 | x4 | x4 | x4 | x4 | x4 | x4 | x4 | x4 | x4 | %218
 x4 | x4 | x4 | x4 | x4 | x4 | x4 | x4 | x4 | x4 | x4 | x4 | x4 | x4 | x4 | x4 | x4 | %235
[K:treble] x4 | x4 | x4 | x4 ||[K:bass] x4 | x4 | x4 | x4 | x4 | x4 | x4 | x4 | x4 | x4 | x4 | x4 | %251
 x4 | x4 | x4 | x4 | x4 | x4 | x4 | x4 | x4 | x4 | x4 | x4 | x4 | x2 F,E, | x2 F,E, | x2 !>!F,E, | %267
 !>!F,E, !>!F,E, | x4 | x4 | x4 | x4 | x4 | x29/12[K:treble] x33/20 | x4 |[K:bass] x4 | x4 | x4 | %278
 x4 | x4 | x4 | x4 | x2 [F,D]2 | x2 [F,D]2 | x2 [=G,E]2 | x4 | x2[K:treble] [Fd]2 | x2 [Fd]2 | %288
 x2 [=Ge]2 | x4 | z2 ^C!p!.D | _ED^C x | x2 [Fd]2- | [Fd]2 x2 | x4 |[K:bass] x4 | x4 | x4 | x4 | %299
 x4 | x4 | x4 | x4 | x4 | x4 | [A,,,E,,A,,] x x2 | x4 | x4 | x4 | x4 | %310
 .[A,,^C,] [^G,,B,,]2 [^F,,B,,] | x4 | x4 | x4 |[K:treble] x4 |[K:bass] x4 |[K:treble] x4 | %317
[K:bass] x4 |[K:treble] x4 |[K:bass] x4 | x4 | x4 | x4 | x2[K:treble] x2 | %324
[K:bass] x2[K:treble] x2 |[K:bass] x4 |[K:treble] x4 |[K:bass] x2/3[K:treble] x10/3 | x4 | %329
[K:bass] x2/3[K:treble] x10/3 | x4 |[K:bass] x2/3[K:treble] x10/3 | x4 | %333
[K:bass] x2/3[K:treble] x10/3 | x/3[K:bass] x11/3 | x4 | x4 | x4 | x4 | x4 | x4 | x4 | x4 | x4 | %344
 x4 | x4 | x4 | x4 | x4 | x4 | x4 | x4 | x4 | x4 | x4 | x4 | x6 |[K:treble] x4 | x2[K:bass] x2 | %359
 x4 | x4 | x4 |[K:treble] x2[K:bass] x2 |[K:treble] x4 | x9/2!8va(! x3/2 | x4 | x/!8va)! x7/2 | %367
 x2[K:bass] x2 | x4 | x4 | x4 | x16/5[K:treble] x4/5 | x4 | x4 ||[K:A][M:3/4][K:bass] x6 | x6 | %376
 x6 | x6 | x6 | x6 | x6 | x6 | x6 | x6 | x6 | x6 | x6 | x6 | x6 | x6 | x6 | x6 | x5[K:treble] x | %393
 x6 |[K:bass] x6 | x6 | x6 | x2[K:treble] x4 | x6 | x6 |[K:bass] x6 | x6 | x6 | x2[K:treble] x4 | %404
 x6 | x6 |[K:bass] x6 | x6 | x6 | x6 | x6 | x6 | x6 | x6 | x6 | x6 | x6 | x6 | x6 | x6 | x6 | x6 | %422
 x6 | x6 | x6 | x6 | x2[K:treble] x4 |[K:bass] x6 | x6 | x2[K:treble] x4 | %430
[K:bass] x2[K:treble] x4 | x6 | x6 | x6 | x6 | x6 | x6 | x6 | x6 | x6 | x6 | x6 | %442
[K:bass] x241/40 ||[M:4/4] (12:8:12A,,,/E,,/A,,/C,/E,/A,/C/E/[K:treble]A/c/e/a/ c' x x2 | %444
[K:bass] x[K:treble] x3[K:bass] x[K:treble] x3 | %445
[K:bass] (12:8:12A,,,/E,,/A,,/C,/E,/A,/C/E/[K:treble]A/c/e/a/ c' z z2 |[K:bass] x2[K:treble] x6 | %447
[K:bass] x4/3[K:treble] x20/3 |[K:bass] x2[K:treble] x!8va(! x2!8va)! x3 | %449
[K:bass] x8/3[K:treble] x16/3 |[K:bass] x2[K:treble] x2[K:bass] x4 | x8 | x8 | %453
[K:treble] x4[K:bass] x4 | x8 | x8 | x8 | x173/40[K:treble] x153/40 | x4[K:bass] x4 | x8 | x8 | %461
 x8 | x8 |] %463
V:4
 x4 | x4 | x4 | x4 |[K:bass] x37/20[K:treble] x13/6 | x4 | x!8va(! x3 | x9/10!8va)! x63/20 | x4 | %9
 x4 | A.^GA.G | A.^G x2 | B.AB.A | B.A x2 | x4 | x4 | x4 | x4 | x4 | x4 | [_Bd].[A^c] [Bd].[Ac] | %21
 [_Bd].[A^c] [Bd].[Ac] | x4 | ba x2 | [_Bd]!<(!.[A^c] [Bd].[Ac] | [_Bd].[A^c] [Bd].[Ac]!<)! | x4 | %27
 x4 | x4 | x4 | x4 | x4 | x4 | x4 | x4 | x4 | x61/15 | x4 | x4 | x4 | x4 | x4 | x4 | x4 | x4 | x4 | %46
 x4 | x4 | x4 | x4 | x4 | x4 | x4 | x4 | x4 | x4 | x4 | x4 | x4 | x4 | x4 | x4 | x4 | x4 | x4 | %65
 x4 | x4 | x4 | x4 | x4 | x4 | x4 | x4 | x4 | x4 | x3!8va(! x!8va)! | x4 | x3!8va(! x!8va)! | x4 | %79
 x3!8va(! x!8va)! | x4 | x3!8va(! x!8va)! | x4 | x4 | x4 | x4 | x4 | x4 | %88
 x[K:bass] x2[K:treble] x | x3!8va(! x!8va)! | x4 | x4 | x4 | x4 | x4 | x4 | x4 | x4 | x4 | x4 | %100
 x4 | x4 |!8va(! x2!8va)! x2 | x4 | x4 | x4 | x4 | x2[K:treble] x2 | x4 | x4 | x2!8va(! x2 | x4 | %112
 x4 | x4 | x6!8va)! | x4 |!8va(! x19/16!8va)! x45/16 | (3A/d/f/^G (3A/d/f/G | (3A/d/f/^G x2 | %119
 (3B/c/e/A (3B/c/e/A | (3B/c/e/A x2 | (3=g/_b/d'/f (3e/f/b/d | (3c/d/f/_B (3A/B/d/^G | %123
 (3a/_b/^c'/=g (3f/g/b/e | (3d/e/g/^c (3_B/c/e/A |!8va(! (3_b/d'/f'/a (3g/a/d'/f | %126
 (3e/f/a/d (3=c/d/f/=B | (3c'/d'/f'/_b (3a/b/d'/^g!8va)! | (3f/^g/b/e (3c/d/f/B | %129
 (3A/B/d/^G (3F/G/B/E | (3C/D/F/B, (3A,/B,/D/^G, | (3F,/^G,/B,/E, (3=G,/^G,/B,/^F, | %132
 (3^F,/^G,/B,/=F, (3F,/G,/B,/E, | F/^G/B/E/ =G/^G/B/^F/ | ^F/^G/B/=F/ F/G/B/E/ | x4 | x4 | x4 | %138
 x2!8va(! x2 | x!8va)! x3 | x4 | x4 | x4 | x4 | x4 | x4 | x4 | x4 | x4 | x4 | x4 | x4 | x4 | x4 | %154
 x4 | x4 | x4 | x4 | x4 | x4 | x4 | x4 | x4 | x4 | x4 | x4 | x4 | x4 | x4 | x4 | x4 | x4 | x4 | %173
 x4 | x4 | x4 | x4 | c[_B=d] [Bd][_Ac] | [_Ac][G_B] [GB]!p![^F=A] | [^FA]4 | x4 | %181
 _A[G_B] [GB]!<(![=FA] | [F_A][_EG] [EG]!<)!!p![DF] | [DF]4 | x4 | x g g[f=a] | [fa][eg] [eg]2 | %187
 x _b b[ac'] | [ac'][g_b] [gb]2 | x4 | x4 | x4 | x2 D/C/C/!fermata!_B,/ | x4 | x4 | x4 | x4 | x4 | %198
 x4 | x4 | x4 | x4 | x4 | x4 | x4 | x4 | x4 | x4 | x4 | f3 e | x4 | a3 g | x4 | (6:4:4a2- z a g2 | %214
 z2 (3:2:2g f2 | f2- (3:2:2f =e2 | e2- (3:2:2e _e2 | _e2- (3:2:2e d2 | A2- (3AG_B | A2 x2 | x4 | %221
 x4 | x4 | A4 | x4 | x4 | x4 | a4 | x4 |!8va(! c'4!8va)! | x4 | x4 | x8/3!8va(! x4/3 | %233
 x2!8va)! x2 | x4 |!8va(! x2!8va)! x2 | x4 |!8va(! x2!8va)! x2 | x4 || x4 | x4 | x4 | x4 | x4 | %244
 x4 | x4 | x4 | A.^GA.G | A.^G x2 | B.AB.A | B.A x2 | x4 | x4 | x4 | x4 | x4 | x4 | %257
 [_Bd].[A^c] [Bd].[Ac] | [_Bd].[A^c] [Bd].[Ac] | x4 | ba x2 | [_Bd].[A^c] [Bd].[Ac] | %262
 [_Bd].[A^c] [Bd].[Ac] | x4 | x4 | x4 | x4 | x4 | x4 | x4 | x4 | x4 | x4 | x61/15 | x4 | x4 | x4 | %277
 x4 | x4 | x4 | x4 | x4 | x4 | x4 | x4 | x4 | x4 | x4 | x4 | x4 | x4 | x4 | x4 | x4 | x4 | x4 | %296
 x4 | x4 | x4 | x4 | x4 | x4 | x4 | x4 | x4 | x4 | x4 | x4 | x4 | x4 | x4 | %311
 x[K:bass] x2[K:treble] x | x3!8va(! x!8va)! | x[K:bass] x2[K:treble] x | x3!8va(! x!8va)! | %315
[K:bass] x3[K:treble] x | x3!8va(! x!8va)! | x[K:bass] x2[K:treble] x | x3!8va(! x!8va)! | %319
 x[K:bass] x2[K:treble] x | x[K:bass] x2[K:treble] x | x[K:bass] x2[K:treble] x | %322
 x[K:bass] x2[K:treble] x | x4 | x4 | x[K:bass] x2[K:treble] x | x4 | x4 | x4 | x4 | x4 | x4 | x4 | %333
 x/3!8va(! x11/3!8va)! | x4 | x4 | x4 | x4 | x4 | x4 | x4 | x4 | x4 | x4 | x4 | x4 | x4 | x4 | x4 | %349
 x4 | x4 | x4 | x4 | x4 | x4 | x4 | x6 | x!8va(! x3 | x3!8va)! x | x4 | x4 | x4 | %362
!8va(! x2!8va)![K:bass] x2 |[K:treble] x4 | x19/4!8va(! x5/4 | x4 | x4 | x/!8va)! x7/2 | x4 | x4 | %370
 x4 | x[K:bass] x9/5[K:treble] x4/5!8va(! x2/5 | x!8va)! x3 | x4 ||[K:A][M:3/4] x6 | x6 | x6 | x6 | %378
 x6 | A2 G2 .[Bb]2 | A2 G2 .[Bb]2 | A2 G2 .[Bb]2 | x6 | B2 ^A2 .[cc']2 | B2 ^A2 .[cc']2 | %385
 B2 ^A2 .[cc']2 | x6 | x6 | x6 | x6 | x6 | x6 | x6 | x2!8va(! x4!8va)! | x6 | x6 | x6 | %397
 x2!8va(! =f'e' ^d'=d' | =c'b ag =fe!8va)! | ^d=d =cB AG | x6 | x6 | x6 | x2!8va(! =f'e' ^d'=d' | %404
 =c'b ag =fe!8va)! | ^d=d =cB AG | x6 | x6 | x6 | x6 | x6 | x6 | x6 | x6 | x6 | x6 | x6 | x6 | x6 | %419
 x6 | x6 | x6 | x6 | x6 | x6 | x6 | x6 |!8va(! x6 | x6 | x6 | x6 | x6 | x6 | x6 | x6 | x6 | x6 | %437
 x6 | x6 | x6 | x6!8va)! | x6 | x241/40 ||[M:4/4] x8 | %444
 x/4[K:bass] x3/2[K:treble] x5/2[K:bass] x3/2[K:treble] x9/4 | x4!8va(! x!8va)! x3 | %446
[K:bass] x3[K:treble] x5 |[K:bass] x4/3[K:treble] x5/3!8va(! x2!8va)! x3 | x8 | x8 | %450
 (6:4:6=D/F/G/d/f/g/ x2 x4 | x8 | x8 | x8 | x8 | x8 | x8 | %457
[K:bass] x51/20[K:treble] x177/64!8va(! x91/32 | x2!8va)! x6 | x8 | x8 | x8 | x8 |] %463
V:5
!pp! z4 | z4 | z4 | z4 | z4 | z4 |!f! [Ee] z z2 | [B,=D^G] z z2 | !^![Acea] z z2 | z4 | z4 | z4 | %12
 z4 | z4 |!f! .[Acg]!mf!.[Acf] z2 |!f! .[FAe]!mf!.[FAd] z2 | z!pp! .[_B,D].[A,F].[B,D] | %17
 [A,F] z z!f! .[=B,E^G] | .[^CEA] z z2 | z4 |!pp! z [=G,^C=G]z[G,CG] | z [^CG]z[CG] | z4 | z4 | %24
 z [=G,^C=G]z[G,CG] | z [^CG]z[CG] | z [DF]z[B,D] | z [A,^C] [^G,D]2 | z [A,^C] [^G,D]2 | %29
 z [A,^C] [^G,D]2 | [^G,D]2 [G,D]2 | [A,^C] z z2 | z4 | z4 | z4 | z4 | z4 | %37
!ff! !>![Adfa][^G^g]!>![Adfa][Gg] | !>![Adfa][^G^g] b/d'/d'/g/ | !>![c^db][cea]!>![cdb][cea] | %40
 !>![c^db][cea] .[cc'].[ee'] | !>![gac'g'][fac'f'].[Aa].[cc'] | !>![efae'][dfad'].[Ff].[Aa] | %43
 !>![cdfc'][_Bdf_b].[Dd].[Ff] | !>![EAce]z[E^G=Be] z |!p! z4 | z4 | z4 | z4 | z2 z [^G^g] | %50
 !>![Bb][Aa] z [^G^g] | !>![cc'][Bb] z [^c^c'] | !>![ee'][dd'][=c=c'][Bb] | [Bb][Aa] z2 | %54
!mf!!>(! [_B_b]3 [^C^c] | [Ee]!>)!!p![Dd] z2 |!mf!!>(! [ff']3 [^G^g] | [Bb]!>)!!p![Aa] z2 |!p! z4 | %59
 z4 | z4 | z2 z [C^FA] | z"_cresc." [B,=FA]z[B,F_A] | z [B,FG]z[B,F^G] |!f! [B,FA]2 z2 | %65
 [CFA]2 z2 | [DFA]2 z2 | z4 | z4 | z4 | z4 | z4 | z4 | z4 |!pp! D2 D2 | D2!p! D/C/C/B,/ | %76
 [Gg]2 [Gg]2 | [Gg]2 g/f/f/e/ | E2 E2 | E2 E/D/D/^C/ | [Aa]2 [Aa]2 | [Aa]2"_cresc." a/g/g/^f/ | %82
 [^D^F]2 F/E/E/D/ | b2 b/a/a/^g/ | [^E^G]2 G/^F/F/E/ | _d'2 d'/_c'/c'/_b/ | [G_B]2 B/_A/A/G/ | %87
 _e'2 e'/_d'/d'/=c'/ |!f! (3:2:4[_EAc]A/A,/!<(!A (3[A,A][A,A][A,A] | %89
 (3[A,A][A,A][A,A] (3[A,A][A,A][A,A]!<)! |!ff! !^![=EAc=e]2 !^![EAce]2 | %91
 [EAce]2 [CAc]/[DBd]/[DBd]/[Ece]/ | !^![FAcef]2 !^![FAcef]2 | [FAcef]2 f2 | %94
 !^![FABdf]2 !^![FABdf]2 | !^![FABdf]2 [DBd]/[Ece]/[Ece]/[Fdf]/ | !^![^Gdf^g]2 !^![Gdfg]2 | %97
!<(! !^![^Gdf^g]2 g2!<)! |!fff! ^f/^g/g/a/ f/g/g/a/ | ^f/^g/g/a/ f/g/g/a/ | a/b/b/c'/ a/b/b/c'/ | %101
 a/b/b/c'/ a/b/b/c'/ | z4 | z4 | z4 | z4 | x4 | x4 | x4 | x4 | !fermata!x4 | x4 | x4 | x4 | x4 x2 | %115
 x4 | x4 | A,2 z2 | z2!p! .[B,FA].[B,E^G] | A,2 z2 | z2!p! .[C^DB].[CEA] | [F,_B,=D]4- | %122
 [F,B,D] z .[_B,DA].[B,D^G] | [=G,^CE]4- | [G,CE] z"_cresc." [^CE_B][CEA] | [A,DF]4- | %126
 [A,DF] z .[DF=c].[DF=B] |!f! [B,D^G]4- | [B,DG] z z2 | z4 | z4 | z4 | z4 | z4 | z4 | z4 | z4 | %137
 z4 | z4 |!ff! [cea][Be^g][cea][Beg] | [cea][Be^g][cea][Beg] | [cea]z/[ceac']/ [ceac']z/A,/ | %142
 A,z/[Acea]/ [Acea]z/A,/ | A,z/[Ace]/ [Ace]z/A,/ | A,z/[EAc]/ [EAc] z | %145
 [CE]/4A/4!mp!!>(![CE]/4A/4[CE]/4A/4[CE]/4A/4 [CE]/4A/4[CE]/4A/4[CE]/4A/4[CE]/4A/4 | %146
 [CE]/4A/4[CE]/4A/4[CE]/4A/4[CE]/4A/4 [CE]/4A/4[CE]/4A/4[CE]/4A/4[CE]/4A/4 | %147
 [CE]/4A/4[CE]/4A/4[CE]/4A/4[CE]/4A/4 [CE]/4A/4[CE]/4A/4[CE]/4A/4[CE]/4A/4 | %148
 [CE]/4A/4[CE]/4A/4[CE]/4A/4[CE]/4A/4 [CE]/4A/4[CE]/4A/4[CE]/4A/4[CE]/4!>)!!pp!A/4 |!p! [cc']4 | %150
 [ff']4 | (3e'2 c'2 e'2 | (3d'2 _b2 d'2 | [fc']4- | [fc']2 [dd']2 | (3[_e_e']3 [ff'] [gg']2 | %156
 (3[ff']2 [gg']2 [_e_e']2 | [_e_e']2 [dd']2 | a2 _b2 | (3[cc']3 [dd'] [_e_e']2 | %160
 (3[dd']2 [_e_e']2 [cc']2 | [cc']2 [=B=b]2 | [Gg]2 [Aa]2 |!<(! [_B_b]2 [dd']2 | %164
 [aa']2!<)!!mp! [gg']2 |!>(! [ff']2 [^c^c']2 | [dd']2!>)!!p! g2 |!pp! Tc'4- | c'4- | c'4- | %170
 c'2- c' b/c'/ |!p! z4 | z4 | z4 | z4 | z4 | z4 | z4 | z4 | z4 | z4 | z4 | z4 | z4 | z4 | z4 | z4 | %187
 z4 | z4 | z4 | z4 | z4 | z4 |!pp! [A,CF]4- | [A,CF]4 |!p! [_B,-E]4 | [B,_B]4 | (3A2 E2 G2 | %198
 (3F2 C2 D2 |!<(! [_A,_E]4!<)! |!mp!!>(! _e4 | _ed!>)!!pp! [Dd]2 | [A,A]3 [_B,_B] |!<(! [C=F]4 | %204
 c4!<)! |!>(! c=B!>)!!pp! [B,B]2 | D3 ^D |!pp! [_B,=D=E]4- | [B,DE]4 |!mp! z2 [^C^c]2 | %210
!p!"_cresc." [Ee]2 [Dd]2 | [Ff]2 [Ee]2 | [Gg]2 [Ff]2 |!mf! [Aa]3 [Gg] | [Gg]3 [Ff] | %215
"_dim." [Ff]3 [Ee] | [Ee]3 [_E_e] | [_E_e]3 [Dd] | [DA-d]2 =e2 |!pp! f4- | f2 z2 | [G,_E-]4 | %222
 [_B,DE]4 | [A,CF]4- | [A,CF]2 z2 |!ppp! F2 D2 | _E4 | [A,CF]4- | [A,CF]4 | z4 | z4 | z4 | z4 | %233
 z4 | z4 |!ppp! [A,CF]4 | z4 | [A,CF]4- | !fermata![A,CF]4 ||!p! [Ee]z[Ee] z | [Ee]z[Ee] z | %241
 z [Ee]z[Ee] | z [Ee]z[Ee] |!pp! z [B,D^G]z[B,DG] | z [B,D^G]z[B,DG] | z4 | z4 | z4 | z4 | z4 | %250
 z4 | z4 | z4 | z4 | z4 | .[^CEA] z z2 | z4 |!pp! z [=G,^C=G]z[G,CG] | z [^CG]z[CG] | z4 | z4 | %261
!pp! z!<(! [=G,^C=G]z[G,CG] | z [^CG]z[CG]!<)! |!p! z [DF]z[DE] | z [A,^C] z2 | z [A,^C] z2 | %266
 z [A,^C] z2 | z4 | z4 | z4 | z4 | z4 | z4 | z4 |!ff! !>![Adfa][^G^g]!>![Adfa][Gg] | %275
 !>![Adfa][^G^g] b/d'/d'/g/ | !>![c^db][cea]!>![cdb][cea] | !>![c^db][cea] .[cc'].[ee'] | %278
 !>![gac'g'][fac'f'].[Aa].[cc'] | !>![efae'][dfad'].[Ff].[Aa] | !>![cdfc'][_Bdf_b].[Dd].[Ff] | %281
 !>![EAce]z[E^G=Be] z |!p! z4 | z4 | z4 | z4 | z2 z [^G^g] | !>![Bb][Aa] z [^G^g] | %288
 !>![cc'][Bb] z [^c^c'] | !>![ee'][dd'][=c=c'][Bb] | [Bb][Aa] z2 |!mf!!>(! [_B_b]3 [^C^c] | %292
 [Ee]!>)!!p![Dd] z2 |!mf! [ff']3 [^G^g] | [Bb]!p![Aa] z2 | z4 | z4 | z4 | x4 | %299
 z [^G,=D^F] z [G,D=F] | z [^G,DE] z!f! [G,D^E] | [^G,D^F]2 z2 |!f! [A,D^F]2 z2 | [B,D^F]2 z2 | %304
 z4 | z4 | z4 | z4 | z4 | z4 | z4 |!p! B,2 B,2 | B,2 B,/A,/A,/^G,/ | [Ee]2 [Ee]2 | e2 e/d/d/^c/ | %315
 ^C2 C2 | ^C2 C/B,/B,/^A,/ | [^F^f]2 [Ff]2 | [^F^f]2 f/e/e/^d/ | _E2 E/_D/D/C/ | %320
 _a2"_cresc." a/_g/g/f/ | [=DF]2 F/_E/E/D/ | [_B_b]2 b/_a/a/=g/ | [=EG]2 G/F/F/E/ | %324
 c'2 c'/_b/b/a/ |!f! [C^FA]4- | [CFA] z z2 | !>!D2 !>!D2 | !>!D3/2(6:4:6E/8^F/8G/8A/8_B/8c/8 d z | %329
 !>![_E,_E]2 !>![E,E]2 | !>!_E3/2(6:4:6F/8G/8A/8_B/8c/8d/8 _e z | !>![_E,_E]2 !>![E,E]2 | %332
 !>!_E3/2(6:4:6F/8G/8A/8_B/8c/8d/8 _e3/2(6:4:6f/8g/8a/8_b/8c'/8d'/8 | _e' z z2 | z4 | %335
!pp! !>![CE]/4A,/4[CE]/4A,/4 [CE] !>![CE]/4A,/4[CE]/4A,/4 [CE] | %336
 !>![CE]/4A,/4[CE]/4A,/4 [CE] [A,C]/[B,D]/[B,D]/[CE]/ | %337
 !>![CEF]/4A,/4[CEF]/4A,/4 [CEF] !>![CEF]/4A,/4[CEF]/4A,/4 [CEF] | %338
 !>![CEF]/4A,/4[CEF]/4A,/4 [CEF] F2 | %339
 !>![B,DF]/4A,/4[B,DF]/4A,/4 [B,DF] !>![B,DF]/4A,/4[B,DF]/4A,/4 [B,DF] | %340
 !>![B,DF]/4A,/4[B,DF]/4A,/4 [B,DF] [B,D]/[CE]/[CE]/[DF]/ | %341
 !>![DF^G]/4B,/4[DFG]/4B,/4 [DFG] !>![DFG]/4B,/4[DFG]/4B,/4 [DFG] | %342
 !>![DF^G]/4B,/4[DFG]/4B,/4 [DFG] G2 | %343
"_cresc." !>![^DA]/[^FB]/[FB]/[Ac]/ !>![Fc]/[A=d]/[Ad]/[c^d]/ | %344
 !>![A^d]/[ce]/[ce]/[d^f]/ !>![cf]/[d^g]/[dg]/[fa]/ | %345
 !>![^da]/[^fb]/[fb]/[ac']/ !>![da]/[fb]/[fb]/[ac']/ | %346
 !>![^da]/[^fb]/[fb]/[ac']/ !>![da]/[fb]/[fb]/[ac']/ |!ff! !>![eac'e'][^d^d'] !>![eac'e'][dd'] | %348
 !>![eac'e'][^d^d'] !>!=f'/a'/a'/f'/ | !>![eac'e'][^d^d'] !>![eac'e'][dd'] | %350
 !>![eac'e'][^d^d'] !>!=f'/a'/a'/f'/ | !>!e'=d' d'/f'/f'/d'/ | !>!e'=d' d'/f'/f'/d'/ | %353
 [fae']/d'/!^![faf']/d'/ e'/d'/!^![faf']/d'/ | e'/d'/!^![faf']/d'/ e'/d'/!^![faf']/d'/ | %355
!fff! [fabd'f']4- | [fabd'f']4 z2 | x4 | x4 | !fermata!x4 | x4 | x4 | x4 |!fff! [^FABd^f]4- | %364
 [FABdf]4 z2 | x4 | x4 | x4 | x4 | x4 | x4 | x4 | x4 | !fermata!z4 ||[K:A][M:3/4]!p! .A,2 z4 | z6 | %376
 z6 | z6 | z6 | z6 | z6 | z6 | z6 | z6 | z6 | z6 |!pp! [G,DF]2 z2 z2 | [=G,CA]2 z2 z2 | %388
 [=CFA]2 z2 z2 | [B,^Ec]2 z2 z2 | [^DAc]2 z2 z2 | [^DAf]2 z2 z2 | z2 [=DGe]2 z2 | z6 |!mf! z6 | %395
 z6 | z6 | !>!=E6- | E6- | E6 |!p! z6 |!<(! [A,A]4 [=C=c]2!<)! |!>(! [=F=f]4 A2!>)! | G2 z2 z2 | %404
 z6 | z6 |!f! z6 | [A,A]4 [=C=c]2 | [=F=f]4 [A,A]2 | [^G,^G]4 [=B,=B]2 | [Ee]6 | [^F,^F]4 [A,A]2 | %412
 [Dd]4 [F,F]2 | [^E,^E]4 [G,G]2 | [Cc]2 z2 .[A,DF]2 | z2 .[D=Gd]2 z2 | .[_B,_E=G]2 z2 .[E_A_e]2 | %417
 z2 .[=B,=E^G]2 z2 | .[E=Ae]2 z2 .[=F^B=f]2 | [E^ce]2 cdde | ^f2 c2 f2 | b2 f2 b2 | %422
 [ee']2 b2 [ee']2 | [aa']2 [B,C]2 [CA]2 | [D_B]2 [_B,D]2 [DB]2 | [^D=B]2 [A,D]2 [DB]2 | Ge=DcGe | %427
 caAeca | d_b_Badb | ^d=b=Badb | ^g!f!e'=dbge' | !>![E=G=c]6 | ^g!f!e'ebge' | !>![E=G=c]6 | %434
 ^g!f!e'ebge' | e!f!=fefef | e!f!=fefef | e!f!=fefef | e!f!=fefef |!ff! Te6- | e6- | e6- | %442
 e4- e d/e/ ||[M:4/4]!f! !///-![ac'e']2 e2 !///-![ac'e']2 e2 | !///-![gbe']2 e2 !///-![fbd']2 d2 | %445
 !///-![eac']3 c3 !///-![fac'] c | !///-![=gb]2 B2 !///-![gb]2 B2 | %447
 !///-![c=g^a] ^A !///-![cfa]2 A2 !///-![=dfa] A | !///-![=ce=a]2 A2 !///-![ce=a]2 A2 | %449
 !///-![Bef] F !///-![B^df]2 F2 !///-![dfb] B | !///-![^f^g=d']2 =d2 !///-![^egd']2 d2 | %451
 !///-![^eac']2 c2 !///-![fab]2 B2 | !///-![ab=e']2 =e2 !///-![fc'e']2 e2 | %453
 !///-![^^fc'e']2 e2 !///-![gbe']2 e2 | z8 | z8 | %456
!ff! (6:4:6!>![EAce]!>![EAce]!>![EAce]!>![EAce]!>![EAce]!>![EAce] (6:4:6!>![Acea]!>![Acea]!>![Acea]!>![Acea]!>![Acea]!>![Acea] | %457
!fff! (3!^![=G=g]2 !^![Ee]2 !^![Gg]2 (3!^![Ff]2 !^![Dd]2 !^![Ff]2 | %458
!ff! [EAce]!<(![Acea][ceac'][eac'e']!<)!!ff!!8va(! [fad'f']2 [aa'][c'c''] | %459
 [c'e'a'c'']2!8va)! z2 z4 | [Acea]2 z2 [Acea]2 z2 | !fermata![A,CEA]8- | [A,CEA] z z2 z4 |] %463
V:6
 [A,C]2 z [A,C]/[A,C]/ | [A,C]2 z [A,C]/[A,C]/ | [A,C] z [A,C][A,C] | .[A,C].[A,C].[A,C].[A,C] | %4
 z4 | z4 | [E,C] z z2 | [E,,E,] z z2 | !^![A,,,A,,] z z2 | z4 | z4 | z4 | z4 | z4 | %14
 .[C,,C,].[F,,F,] z2 | .[A,,,A,,].[D,,D,] z2 | z .[_B,,F,].[F,,F,].[B,,F,] | [F,,F,] z z .[E,,E,] | %18
 .[A,,,A,,] z z2 | z4 | A,,zA,, z | G,4 | F,2 E,2 | z4 | A,,zA,, z | G,4 | F,2 E,2 | z2 F,E, | %28
 z2 F,E, | z2 F,E, | F,E, F,E, | E, z z2 | z4 | z4 | z4 | z4 | z4 | %37
!f! !>![A,,A,][F,A,B,D]!>![A,,A,][F,A,B,D] | !>![A,,A,][F,A,B,D]!>![A,,A,][F,A,B,D] | %39
 !>![A,,A,][E,A,C]!>![A,,A,][E,A,C] | !>![A,,A,][E,A,C] z2 | .[C,,C,]!f!.[F,,F,] z2 | %42
 .[A,,,A,,]!f!.[D,,D,] z2 | .[F,,,F,,]!f!.[_B,,,_B,,] z2 | [E,A,C]z[E,^G,=B,] z | z2 z ^G, | %46
 !>!B,A, z ^G, | !>!CB, z ^C | !>!ED=CB, | B,A, z2 | [A,,A,] z z2 | [A,,A,] z z2 | z4 | %53
 z2 [D,,D,]2- | [D,,D,]4 | [D,,D,] z [A,,,A,,]2- | [A,,,A,,]4 | [A,,,A,,] z z2 | %58
 z [^F,CE]z[F,C_E] | z [^F,CD]z[F,C^D] | z [^F,CE]z[F,C^D] | z [^F,CE] z =D,, | z D,zG,, | %63
 z D,z=G,, | [D,,D,]2 z2 | [C,,C,]2 z2 | [B,,,B,,]2 z2 | z4 | z4 | z4 | z4 | z4 | z4 | z4 | %74
 [G,,F,]4- | [G,,F,]4 | [G,_B,DE]4- | [G,B,DE]2 z2 | [A,,G,]4- | [A,,G,]4 | [A,CE^F]4- | %81
 [A,CEF]2 z2 | [B,,A,]4 | [^G,=D^F]4 | [^C,B,]4 |[K:treble] [_B,_F_A]4 |[K:bass] [_E,_D]4 | %87
[K:treble] [C_G_B]4 |[K:bass]!ped! [F,,F,]4 | x2!ped-up! z4 |!f!!ped! !///-!E,,,2 E,,2!ped-up! | %91
 !///-!E,,,2 E,,2 |!ped! !///-!E,,,2 E,,2!ped-up! | !///-!E,,,2 E,,2 | %94
!ped! !///-!E,,,2 E,,2!ped-up! | !///-!E,,,2 E,,2 |!f!!ped! !///-!E,,,2 E,,2!ped-up! | %97
 !///-!E,,,2 E,,2 |!ff!!ped! !///-!E,,,2 E,,2!ped-up! | !///-!E,,,2 E,,2 | %100
!ped! !///-!E,,,2 E,,2!ped-up! | !///-!E,,,2 E,,2 | z4 | z4 | z4 | z4 | x4 | x4 | x4 | x4 | %110
 !fermata!x4 | x4 | x4 | x4 | x4 x2 | x4 | x4 | [A,,,A,,]2 z2 | z2 .[A,,A,].[A,,A,] | %119
 [A,,,A,,]2 z2 | z2 .[A,,A,].[A,,A,] | [A,,,A,,]4- | [A,,,A,,] z .[A,,A,].[A,,A,] | [A,,,A,,]4- | %124
 [A,,,A,,] z [A,,A,][A,,A,] | [A,,,A,,]4- | [A,,,A,,] z .[A,,A,].[A,,A,] | %127
!ped! [A,,,A,,]4-!ped-up! | [A,,,A,,] z z2 | z4 | z4 | z4 | z4 | z4 | z4 | z4 | z4 | z4 | z4 | %139
!ped! [A,,A,]!ped-up![E,,E,]!ped-up!!ped![A,,A,][E,,E,] | %140
!ped! [A,,A,][E,,E,]!ped-up!!ped![A,,A,][E,,E,]!ped-up! | %141
!ped! [A,,A,]z/[CEA]/ [CEA]z/[A,,,A,,]/!ped-up! | [A,,,A,,]z/[A,CE]/ [A,CE]z/[A,,,A,,]/ | %143
!ped! [A,,,A,,]z/[A,CE]/ [A,CE]z/[A,,,A,,]/!ped-up! | %144
!ped! [A,,,A,,]z/[E,A,C]/ [E,A,C]z/[A,,,A,,]/!ped-up! |!ped! [A,,,A,,]4-!ped-up! | [A,,,A,,]4 | %147
!ped! !>![G,,,G,,]4-!ped-up! | [G,,,G,,]4!ped-up!!ped! |[K:treble]!pp! !///-![FA]2 c2 | %150
 !///-![FA]2 c2 |!ped! !///-![FA_B]2 c2!ped-up! | !///-![FA_B]2 c2 |!ped! !///-![FA]2 c2!ped-up! | %154
 !///-![FA]2 c2 |!ped! !///-![C_E_A]2 c2!ped-up! |!ped! !///-![C_EG]2 _B2!ped-up! | %157
!ped!{/!>!D,} !///-![CD^F]2 =A2!ped-up! | %158
!ped! !///-![CD^F] A!ped-up!!ped! !///-![_B,DF] _B!ped-up! | %159
!ped!{/!>![F,C]} !///-!=F2 _A2!ped-up! |!ped! !///-!_E2 G2!ped-up! | %161
!ped!{/!>!G,} !///-!D2 F2!ped-up! | !///-!D2 F2 |!ped! !///-![G,_B,D]2 E2!ped-up! | %164
!pp!!ped! !///-![G,_B,^C]2 E2!ped-up! |!ped! !///-![A,^CF]2 A2!ped-up! | %166
!pp!!ped! !///-![_B,DF]2 G2[K:bass]!ped-up!!ped!!ped-up! |[K:treble] [_B,-FG]4 | [B,-DA]4 | %169
 [B,-^DA]4 | [B,EG]4 |[K:bass] F,,4- | F,,4- | F,,4- | F,,4 | F,,4- | F,,4 | C,,4- | C,,4 | D,,4- | %180
 D,,2 z2 | F,,4- | F,,4 | G,,4- | G,,2 z2 | G,,4- | G,,2 z2 | G,,4- | G,,2 z2 |!mp! C,,4- | %190
 C,,2 z2 | z4 | z4 | [F,,C,]4- | [F,,C,]4 | [F,,C,G,]4- | [F,,C,G,]4 | [F,,C,]4- | [F,,C,]4 | %199
 [C,,C,]4 | C2 _B,2 | A,4- | A,4 | _A,4 | _A,2 G,2 | F,4- | F,4 | =E,4- | E,4 | %209
!ped! [A,,G,]4!ped-up! |!ped! [_B,,F,]4!ped-up! |!ped! [^C,_B,]4!ped-up! |!ped! [D,=B,]4!ped-up! | %213
!ped! [E,D]4!ped-up! |!ped! [F,_D]4!ped-up! |!ped! [^C,_B,]4!ped-up! |!ped! [=C,=A,]4!ped-up! | %217
!ped! ^F,2 G,2!ped-up! |!ped! _B,4!ped-up! |!ped! [F,,C,A,]4-!ped-up! | [F,,C,A,]2 z2 | [C,,C,]4- | %222
 [C,,C,]4 | [F,,,F,,]4- | [F,,,F,,]2 z2 | [C,,C,]4- | [C,,C,]4 | [F,,,F,,]4- | [F,,,F,,]4 | %229
 [C,A,C]4- | [C,A,C]4- | [C,A,C]4- | [C,A,C]4- | [C,A,C]4 | z4 | [F,,,F,,]4 | z4 | [F,,,F,,]4- | %238
 !fermata![F,,,F,,]4 || [E,,E,]z[E,,E,] z | [E,,E,]z[E,,E,] z | [E,,E,]z[E,,E,] z | %242
 [E,,E,]z[E,,E,] z | [A,,F,]z[A,,F,] z | [A,,F,]z[A,,F,] z | z4 | z4 | z4 | z4 | z4 | z4 | z4 | %252
 z4 | z4 | z4 | .[A,,,A,,] z z2 | z4 | A,,zA,, z | G,4 | F,2 E,2 | z4 | A,,zA,, z | G,4 | F,2 E,2 | %264
 E,E, z E, | E,E, z E, | E,E, z2 | z4 | z4 | z4 | z4 | z4 | z4 | z4 | %274
!f! !>![A,,A,][F,A,B,D]!>![A,,A,][F,A,B,D] | !>![A,,A,][F,A,B,D]!>![A,,A,][F,A,B,D] | %276
 !>![A,,A,][E,A,C]!>![A,,A,][E,A,C] | !>![A,,A,][E,A,C] z2 | .[C,,C,]!f!.[F,,F,] z2 | %279
 .[A,,,A,,]!f!.[D,,D,] z2 | .[F,,,F,,]!f!.[_B,,,_B,,] z2 | [E,A,C]z[E,^G,=B,] z | z2 z ^G, | %283
 !>!B,A, z ^G, | !>!CB, z ^C | !>!ED=CB, | B,A, z2 | [A,,A,] z z2 | [A,,A,] z z2 | z4 | %290
 z2 [D,,D,]2- | [D,,D,]4 | [D,,D,] z [A,,,A,,]2- | [A,,,A,,]4 | [A,,,A,,] z z2 | %295
 z!mp! [^D,A,^C] z [D,A,=C] | z [^D,A,B,] z [D,A,^B,] | z [^D,A,^C] z [D,A,^B,] | %298
 z!mp!"^cresc." [^D,A,^C] z[I:staff -1] [A,^D^F] |[I:staff +1] z [B,,,B,,] z [E,,,E,,] | %300
 z [B,,,B,,] z [=E,,,=E,,] | [B,,,B,,]2 z2 | [A,,,A,,]2 z2 | [^G,,,^G,,]2 z2 | z4 | z4 | z4 | z4 | %308
 z4 | z4 | z4 |!ped! [E,,D,]4-!ped-up! | [E,,D,]4 |!ped! [E,=G,B,^C]4-!ped-up! | [E,=G,B,C]2 x2 | %315
!ped! [^F,,E,]4-!ped-up! | [F,,E,]4 |!ped! [^F,=A,^C^D]4-!ped-up! | [F,A,CD]2 x2 | %319
!ped! [_A,,_G,]4!ped-up! | [F,_C_EF]2 x2 |!ped! [_B,,_A,]4!ped-up! | [G,_DFG]2 x2 | %323
!ped! [C,_B,]4!ped-up! |[K:treble]!ped! [A,_EGA]4!ped-up! |[K:bass]!ped! [D,,D,]4-!ped-up! | %326
 [D,,D,] z z2 | !>![D,,D,]2 !>!D,2 |!ped! !>!D,3/2!ped-up!(6:4:6E,/8^F,/8G,/8A,/8_B,/8C/8 D z | %329
 [D,,D,]2 z2 |!ped! !>!_E,3/2(6:4:6F,/8G,/8A,/8_B,/8C/8D/8 _E z!ped-up! | [D,,D,]2 z2 | %332
!ped! !>!_E,3/2(6:4:6F,/8G,/8A,/8_B,/8C/8D/8[K:treble] _E3/2(6:4:6F/8G/8A/8_B/8c/8d/8!ped-up! | %333
 _e z z2 | z4 |[K:bass]!ped! !///-!E,,,2 E,,2!ped-up! | !///-!E,,,2 E,,2 | %337
!ped! !///-!E,,,2!ped-up! E,,2 | !///-!E,,,2 E,,2 |!ped! !///-!E,,,2 E,,2!ped-up! | %340
 !///-!E,,,2 E,,2 |!ped! !///-!E,,,2 E,,2!ped-up! | !///-!E,,,2 E,,2 | %343
!ped!"_cresc." E,,,/4E,,/4E,,,/4E,,/4E,,,/4E,,/4E,,,/4E,,/4!ped-up!!ped!E,,,/4E,,/4E,,,/4E,,/4E,,,/4E,,/4E,,,/4E,,/4!ped-up! | %344
!ped! E,,,/4E,,/4E,,,/4E,,/4E,,,/4E,,/4E,,,/4E,,/4!ped-up!!ped!E,,,/4E,,/4E,,,/4E,,/4E,,,/4E,,/4E,,,/4E,,/4!ped-up! | %345
!ped! E,,,/4E,,/4E,,,/4E,,/4E,,,/4E,,/4E,,,/4E,,/4!ped-up!!ped!E,,,/4E,,/4E,,,/4E,,/4E,,,/4E,,/4E,,,/4E,,/4!ped-up! | %346
!ped! E,,,/4E,,/4E,,,/4E,,/4E,,,/4E,,/4E,,,/4E,,/4!ped-up!!ped!E,,,/4E,,/4E,,,/4E,,/4E,,,/4E,,/4E,,,/4E,,/4!ped-up! | %347
!ped! (3[E,,,E,,][K:treble]!f! [CE^FA][CEFA] (3[CEFA][CEFA][CEFA]!ped-up! | %348
!ped! (3[CE^FA][CEFA][CEFA]!ped-up!!ped! (3[C^D=FA][CDFA]!ped-up![CDFA] | %349
[K:bass]!ped! (3[E,,E,][K:treble]!f! [CE^FA][CEFA] (3[CEFA][CEFA][CEFA]!ped-up! | %350
!ped! (3[CE^FA][CEFA][CEFA]!ped-up!!ped! (3[C^D=FA][CDFA]!ped-up![CDFA] | %351
[K:bass]!ped! (3[E,,E,][K:treble] [B,=DFA][B,DFA] z2!ped-up! | %352
[K:bass]!ped! (3[E,,E,][K:treble] [B,=DFA][B,DFA] z2!ped-up! | %353
[K:bass]!ped! [E,,E,]!>![E,A,B,D] z !>![E,A,B,D]!ped-up! | z !>![E,A,B,D] z !>![E,A,B,D] | %355
!ped!!ff! !///-!E,,,2 E,,2!ped-up! | !///-!!fermata!E,,,2 E,,2 z2 | x4 | x4 | !fermata!x4 | x4 | %361
 x4 | x4 |!ff!!ped! !///-!E,,,2 E,,2 | x2!ped-up! !///-!E,,,2 E,,2 z2 | x4 | x4 | x4 | x4 | x4 | %370
 x4 | x4 | x4 | !fermata!z4 ||[K:A][M:3/4] .[A,,,A,,]2 z4 | z6 | z6 | z6 | z6 | z6 | z6 | z6 | z6 | %383
 z6 | z6 | z6 | [B,,,B,,]2 z2 z2 | [A,,,A,,]2 z2 z2 | [D,,D,]2 z2 z2 | [C,,C,]2 z2 z2 | %390
 [F,,F,]2 z2 z2 | [B,,,B,,]2 z2 z2 | z2 [E,,E,]2 z2 | z6 | .[A,,A,]2 z2 .[=G,,=G,]2 | %395
 .[=F,,=F,]2 z2 .[_E,,_E,]2 | .[D,,D,]2 z2 .[_B,,,_B,,]2 | !>!=E,6- | E,6- | E,6 | %400
 .[A,,A,]2 z2 .[=G,,=G,]2 | .[=F,,=F,]2 z2 .[_E,,_E,]2 | .[D,,D,]2 z2 .[_B,,,_B,,]2 | !>!=E,6- | %404
 E,6- | E,6 | .[A,,A,]2 z2 .[=G,,=G,]2 | .[=F,,=F,]2 z2 .[_E,,_E,]2 | .[D,,D,]2 z2 .[_B,,,_B,,]2 | %409
 .[=E,,=E,]2 z2 .[D,,D,]2 | .[C,,C,]2 z2 .[A,,,A,,]2 | .[D,,D,]2 z2 .[C,,C,]2 | %412
 .[B,,,B,,]2 z2 .[^G,,,^G,,]2 | .[C,,C,]2 z2 .[B,,,B,,]2 | .[A,,,A,,]2 z2 .[=C,,=C,]2 | %415
 z2 .[B,,,B,,]2 z2 | .[_D,,_D,]2 z2 .[=C,,=C,]2 | z2 .[=D,,=D,]2 z2 | .[^C,,^C,]2 z2 .[^D,,^D,]2 | %419
 [E,,E,]2 z2 z2 |[K:treble] [CE^A]2 z4 | [DEB]2 z2 z2 | [DEG]2 z2 z2 | %423
[K:bass]!ped! [A,,A,]6!ped-up! | [=G,,=G,]6!ped-up!!ped! | [F,,F,]6!ped-up!!ped! | %426
 [E,,E,]6!ped-up!!ped! | [A,,,A,,]6!ped-up!!ped! | [=G,,,=G,,]6!ped-up!!ped! | %429
 [F,,,F,,]6!ped!!ped-up! | [E,,,E,,]6!ped!!ped-up! | !>![E,=G,=C]6 | %432
!ped! [E,,E,]2 [E,E]2 z2!ped-up! | !>![E,=G,=C]6 |!ped! [E,,E,]2 [E,E]2 z2!ped-up! | %435
!ped! [E,=G,=C]6!ped-up! |!ped! [E,=G,=C]6!ped-up! |!ped! [E,=G,=C]6!ped-up! | %438
!ped! [E,=G,=C]6!ped-up! |!ped!{/C,,} [E,G,D]2 [E,E][E,E] [E,E]2!ped-up! | [E,E]2 [E,E]2 [E,E]2 | %441
 [E,E]2 [E,E]2 [E,E]2 | [E,E]2 [E,E]2 [E,E]2 || %443
[M:4/4]!ff!!ped! !^![E,E]4!ped-up!!ped! !^![A,A]4!ped-up! | %444
!ped! (3!^![G,G]2 !^![E,E]2 !^![G,G]2!ped-up!!ped! (3!^![F,F]2 !^![D,D]2 !^![F,F]2!ped-up! | %445
!ped! !^![E,E]6!ped-up!!ped!{/[^D,,^D,]} !^![F,F]2!ped-up! | %446
!ped!{/[E,,E,]} (3!^![=G,=G]3 !^![A,A] !^![B,B]2!ped-up!!ped! (3!^![A,A]2 !^![B,B]2 !^![G,G]2!ped-up! | %447
!ped! [=G,=G]2!ped-up!!ped! [F,F]2 [C,C]2 [=D,=D]2!ped-up! | %448
!ped! (3!^![E,E]3 !^![F,F] !^![=G,=G]2 (3!^![F,F]2 !^![G,G]2 !^![E,E]2!ped-up! | %449
!ped! !^![E,E]2!ped-up!!ped! !^![^D,^D]2 !^![B,,B,]2 !^![C,C]2!ped-up! | %450
!ped! !^![=D,=D]2 !^![F,F]2[K:treble]!ped-up!!ped! !^![Cc]2 !^![B,B]2!ped-up! | %451
!ped! !^![A,A]2[K:bass] !^![^E,^E]2!ped-up!!ped! !^![F,F]2 !^![B,,B,]2!ped-up! | %452
[K:treble]!ped! [DAB]4!ped-up!!ped! !>![D-Fc-]4!ped-up! | %453
 [D^^Fc][K:bass] (3E,/E/E,/E[E,E][K:treble] [DEGB][K:bass] !>![E,E]!>![E,E]!>![E,E] | z8 | z8 | %456
!ped! (6:4:6!>![A,,,A,,]!>![A,,,A,,]!>![A,,,A,,]!>![A,,,A,,]!>![A,,,A,,]!>![A,,,A,,] (6:4:6!>![A,,,A,,]!>![A,,,A,,]!>![A,,,A,,]!>![A,,,A,,]!>![A,,,A,,]!>![A,,,A,,]!ped-up! | %457
!mf! !///-![E,=G,B,]2 E2 !///-![E,G,B,]2 D2 |!ped! [A,,E,C]4!ped-up!!ped! [D,,A,,F,]4!ped-up! | %459
!ff!!ped!!8vb(! !///-!A,,,,2 A,,,2 !///-!A,,,,2 A,,,2!ped-up! | %460
!ped! !///-!A,,,,2 A,,,2 !///-!A,,,,2 A,,,2!ped-up!!8vb)! | %461
!ped!!8vb(! A,,,,/4A,,,/4!p!!<(!A,,,,/4A,,,/4A,,,,/4A,,,/4A,,,,/4A,,,/4A,,,,/4A,,,/4A,,,,/4A,,,/4A,,,,/4A,,,/4A,,,,/4A,,,/4A,,,,/4A,,,/4A,,,,/4A,,,/4A,,,,/4A,,,/4A,,,,/4A,,,/4A,,,,/4A,,,/4A,,,,/4A,,,/4A,,,,/4A,,,/4A,,,,/4A,,,/4!ped-up!!<)! | %462
!fff! .!^![A,,,,A,,,]!8vb)! z z2 z4 |] %463
V:7
 [F,,^D,]2 z [F,,D,]/[F,,D,]/ | [F,,^D,]2 z [F,,D,]/[F,,D,]/ | [F,,^D,] z [F,,D,][F,,D,] | %3
 .[F,,^D,].[F,,D,].[F,,D,].[F,,D,] | x4 | x4 | x4 | x4 | x4 | x4 | x4 | x4 | x4 | x4 | x4 | x4 | %16
 x4 | x4 | x4 | x4 | x4 | A,,zA,, z | x4 | x4 | x4 | A,,zA,, z | A,,zA,, z | A,, z z2 | A,, z z2 | %29
 A,, z z2 | x4 | A,, x x2 | x4 | x4 | x4 | x4 | x4 | x4 | x4 | x4 | x4 | x4 | x4 | x4 | x4 | %45
 A,,4- | A,,4- | A,,4- | A,, z z2 | A,, z x2 | x4 | x4 | x4 | x4 | x4 | x4 | x4 | x4 | z A,,zD,, | %59
 z A,,z=D,, | z A,,z=D,, | z A,, x x | x4 | x4 | x4 | x4 | x4 | x4 | x4 | x4 | x4 | x4 | x4 | x4 | %74
 x4 | x4 | x4 | x4 | x4 | x4 | x4 | x4 | x4 | x4 | x4 |[K:treble] x4 |[K:bass] x4 |[K:treble] x4 | %88
[K:bass] x4 | x4 | x4 | x4 | x4 | x4 | x4 | x4 | x4 | x4 | x4 | x4 | x4 | x4 | x4 | x4 | x4 | x4 | %106
 x4 | x4 | x4 | x4 | x4 | x4 | x4 | x4 | x6 | x4 | x4 | x4 | x4 | x4 | x4 | x4 | x4 | x4 | x4 | %125
 x4 | x4 | x4 | x4 | x4 | x4 | x4 | x4 | x4 | x4 | x4 | x4 | x4 | x4 | x4 | x4 | x4 | x4 | x4 | %144
 x4 | x4 | x4 | x4 | x2 x x/ x/4!p! !>![F,,,F,,]/4 |[K:treble] x4 | x4 | x4 | x4 | x4 | x4 | x4 | %156
 x4 | x4 | x4 | x4 | x4 | x4 | x4 | x4 | x4 | x4 | x2 x x/ x/4[K:bass]!pp! [C,C]/4 |[K:treble] x4 | %168
 x4 | x4 | x4 |[K:bass] x4 | x4 | x4 | x4 | x4 | x4 | x4 | x4 | x4 | x4 | x4 | x4 | x4 | x4 | x4 | %186
 x4 | x4 | x4 | x4 | x4 | x4 | x4 | x4 | x4 | x4 | x4 | x4 | x4 | x4 | C,4 | D,4- | D,4 | F,,4- | %204
 F,,4 | G,,4- | G,,4 | [G,,,G,,]4- | [G,,,G,,]4 | x4 | x4 | x4 | x4 | x4 | x4 | x4 | x4 | _B,,4 | %218
 C,4 | x4 | x4 | x4 | x4 | x4 | x4 | x4 | x4 | x4 | x4 | [F,,,F,,]4- | [F,,,F,,]4- | [F,,,F,,]4- | %232
 [F,,,F,,]4- | [F,,,F,,]4 | x4 | x4 | x4 | x4 | x4 || x4 | x4 | x4 | x4 | x4 | x4 | x4 | x4 | x4 | %248
 x4 | x4 | x4 | x4 | x4 | x4 | x4 | x4 | x4 | x4 | A,,zA,, z | x4 | x4 | x4 | A,,zA,, z | %263
 A,,zA,, z | A,, z z2 | A,, z z2 | A,, z x2 | x4 | x4 | x4 | x4 | x4 | x4 | x4 | x4 | x4 | x4 | %277
 x4 | x4 | x4 | x4 | x4 | A,,4- | A,,4- | A,,4- | A,, z z2 | A,, z x2 | x4 | x4 | x4 | x4 | x4 | %292
 x4 | x4 | x4 | z ^F,, z [B,,,B,,] | z ^F,, z [=B,,,=B,,] | z ^F,, z [=B,,,=B,,] | %298
 z ^F,, z [B,,,B,,] | x4 | x4 | x4 | x4 | x4 | x4 | x4 | x4 | x4 | x4 | x4 | x4 | x4 | x4 | x4 | %314
 x4 | x4 | x4 | x4 | x4 | x4 | x4 | x4 | x4 | x4 |[K:treble] x4 |[K:bass] x4 | x4 | x4 | x4 | x4 | %330
 x4 | x4 | x2[K:treble] x2 | x4 | x4 |[K:bass] x4 | x4 | x4 | x4 | x4 | x4 | x4 | x4 | x4 | x4 | %345
 x4 | x4 | x2/3[K:treble] x10/3 | x4 |[K:bass] x2/3[K:treble] x10/3 | x4 | %351
[K:bass] x2/3[K:treble] x10/3 |[K:bass] x2/3[K:treble] x10/3 |[K:bass] x4 | x4 | x4 | x6 | x4 | %358
 x4 | x4 | x4 | x4 | x4 | x4 | x6 | x4 | x4 | x4 | x4 | x4 | x4 | x4 | x4 | x4 ||[K:A][M:3/4] x6 | %375
 x6 | x6 | x6 | x6 | x6 | x6 | x6 | x6 | x6 | x6 | x6 | x6 | x6 | x6 | x6 | x6 | x6 | x6 | x6 | %394
 x6 | x6 | x6 | =E,,2 z2 z2 | x6 | x6 | x6 | x6 | x6 | =E,,2 z2 z2 | x6 | x6 | x6 | x6 | x6 | x6 | %410
 x6 | x6 | x6 | x6 | x6 | x6 | x6 | x6 | x6 | x6 |[K:treble] x6 | x6 | x6 |[K:bass] x6 | x6 | x6 | %426
 x6 | x6 | x6 | x6 | x6 | x6 | x6 | x6 | x6 | x6 | x6 | x6 | x6 | x6 | x6 | x6 | x6 ||[M:4/4] x8 | %444
 x8 | z2 z2 [C,,C,]2 x2 | x8 | x8 | x8 | x8 | x4[K:treble] x4 | x4[K:bass] x2 x x/ [=E,,=E,]/ | %452
[K:treble] x8 | x[K:bass] x3[K:treble] x[K:bass] x3 | x8 | x8 | x8 | x8 | x8 |!8vb(! x8 | %460
 x8!8vb)! |!8vb(! x8 | x!8vb)! x7 |] %463
V:8
 x4 | x4 | x4 | x4 | x4 | x4 | x4 | x4 | x4 | x4 | x4 | x4 | x4 | x4 | x4 | x4 | x4 | x4 | x4 | %19
 x4 | x4 | x4 | x4 | x4 | x4 | x4 | x4 | x4 | x4 | x4 | x4 | x4 | x4 | x4 | x4 | x4 | x4 | x4 | %38
 x4 | x4 | x4 | x4 | x4 | x4 | x4 | x4 | x4 | x4 | x4 | x4 | x4 | x4 | x4 | x4 | x4 | x4 | x4 | %57
 x4 | x4 | x4 | x4 | x4 | x4 | x4 | x4 | x4 | x4 | x4 | x4 | x4 | x4 | x4 | x4 | x4 | B,4- | %75
 B,2 x2 | x4 | x2 G/F/F/E/ | ^C4- | C4 | x4 | x2 A/G/G/^F/ | x4 | B2 B/A/A/^G/ | x4 | %85
 _d2 d/_c/c/_B/ | x4 | _e2 e/_d/d/=c/ | x4 | x4 | x4 | x4 | x4 | x2 [Ece]/[DBd]/[DBd]/[CAc]/ | x4 | %95
 x4 | x4 | x2 [Fdf]/[Ece]/[Ece]/[DBd]/ | (3[^FAc^d][FAcd][FAcd] (3[FAcd][FAcd][FAcd] | %99
 (3[^FAc^d][FAcd][FAcd] (3[FAcd][FAcd][FAcd] | (3[Ac^d^f][Acdf][Acdf] (3[Acdf][Acdf][Acdf] | %101
 (3[Ac^d^f][Acdf][Acdf] (3[Acdf][Acdf][Acdf] | x4 | x4 | x4 | x4 | x4 | x4 | x4 | x4 | x4 | x4 | %112
 x4 | x4 | x6 | x4 | x4 | x4 | x4 | x4 | x4 | x4 | x4 | x4 | x4 | x4 | x4 | x4 | x4 | x4 | x4 | %131
 x4 | x4 | x4 | x4 | x4 | x4 | x4 | x4 | x4 | x4 | x4 | x4 | x4 | x4 | x4 | x4 | x4 | x4 | x4 | %150
 x4 | e4- | e4 | x4 | x4 | x4 | x4 | x4 | x4 | x4 | x4 | x4 | x4 | x4 | x4 | x4 | x4 | x4 | x4 | %169
 x4 | x4 | x4 | x4 | x4 | x4 | x4 | x4 | x4 | x4 | x4 | x4 | x4 | x4 | x4 | x4 | x4 | x4 | x4 | %188
 x4 | x4 | x4 | x4 | x4 | x4 | x4 | x4 | x4 | A,4- | A,4 | x4 | _A2 G2 | ^F4 | x4 | x4 | %204
 F2!mp! _E2 | x4 | x4 | x4 | x4 | x4 | x4 | x4 | x4 | z2 _B2 | z _A_d x | z2 G2 | z F=A x | x4 | %218
 x2 =E2 | F4- | F2 x2 | x4 | x4 | x4 | x4 | [G,_B,]4- | [G,B,]4 | x4 | x4 | x4 | x4 | x4 | x4 | %233
 x4 | x4 | x4 | x4 | x4 | x4 || x4 | x4 | x4 | x4 | x4 | x4 | x4 | x4 | x4 | x4 | x4 | x4 | x4 | %252
 x4 | x4 | x4 | x4 | x4 | x4 | x4 | x4 | x4 | x4 | x4 | x4 | x4 | x4 | x4 | x4 | x4 | x4 | x4 | %271
 x4 | x4 | x4 | x4 | x4 | x4 | x4 | x4 | x4 | x4 | x4 | x4 | x4 | x4 | x4 | x4 | x4 | x4 | x4 | %290
 x4 | x4 | x4 | x4 | x4 | x4 | x4 | x4 | x4 | x4 | x4 | x4 | x4 | x4 | x4 | x4 | x4 | x4 | x4 | %309
 x4 | x4 | ^G,4- | G,2 x2 | x4 | E2 E/D/D/^C/ | ^A,4- | A,4 | x4 | x2 ^F/E/E/^D/ | =C2 x2 | %320
 _A2 A/_G/G/F/ | x4 | x2 _B/_A/A/=G/ | x4 | c2 c/_B/B/A/ | x4 | x4 | x4 | x4 | x4 | x4 | x4 | x4 | %333
 x4 | x4 | x4 | x4 | x4 | x2 [CE]/[B,D]/[B,D]/[A,C]/ | x4 | x4 | x4 | x2 [DF]/[CE]/[CE]/[B,D]/ | %343
 x4 | x4 | x4 | x4 | x4 | x4 | x4 | x4 | [fa]2 x2 | [fa]2 x2 | x4 | x4 | x4 | x6 | x4 | x4 | x4 | %360
 x4 | x4 | x4 | x4 | x6 | x4 | x4 | x4 | x4 | x4 | x4 | x4 | x4 | x4 ||[K:A][M:3/4] x6 | x6 | x6 | %377
 x6 | x6 | x6 | x6 | x6 | x6 | x6 | x6 | x6 | x6 | x6 | x6 | x6 | x6 | x6 | x6 | x6 | x6 | x6 | %396
 x6 | x6 | x6 | x6 | x6 | x6 | x6 | !>!E6 | E6 | E6 | x6 | x6 | x6 | x6 | x6 | x6 | x6 | x6 | x6 | %415
 x6 | x6 | x6 | x6 | x6 | x6 | x6 | x6 | x6 | x6 | x6 | x6 | x6 | x6 | x6 | x6 | x6 | x6 | x6 | %434
 x6 | x6 | x6 | x6 | x6 | x6 | x6 | x6 | x6 ||[M:4/4] x8 | x8 | x8 | x8 | x8 | x8 | x8 | x8 | x8 | %452
 x8 | x8 | x8 | x8 | x8 | x8 | x4!8va(! x4 | x2!8va)! x6 | x8 | x8 | x8 |] %463
V:9
 x4 | x4 | x4 | x4 | x4 | x4 | x4 | x4 | x4 | x4 | x4 | x4 | x4 | x4 | x4 | x4 | x4 | x4 | x4 | %19
 x4 | x4 | x4 | x4 | x4 | x4 | x4 | x4 | x4 | x4 | x4 | x4 | x4 | x4 | x4 | x4 | x4 | x4 | x4 | %38
 x4 | x4 | x4 | x4 | x4 | x4 | x4 | x4 | x4 | x4 | x4 | x4 | x4 | x4 | x4 | x4 | x4 | x4 | x4 | %57
 x4 | x4 | x4 | x4 | x4 | x4 | x4 | x4 | x4 | x4 | x4 | x4 | x4 | x4 | x4 | x4 | x4 | x4 | x4 | %76
 x4 | x4 | x4 | x4 | x4 | x4 | x4 | x4 | x4 |[K:treble] x4 |[K:bass] x4 |[K:treble] x4 | %88
[K:bass] x4 | x4 | x4 | x4 | x4 | x4 | x4 | x4 | x4 | x4 | x4 | x4 | x4 | x4 | x4 | x4 | x4 | x4 | %106
 x4 | x4 | x4 | x4 | x4 | x4 | x4 | x4 | x6 | x4 | x4 | x4 | x4 | x4 | x4 | x4 | x4 | x4 | x4 | %125
 x4 | x4 | x4 | x4 | x4 | x4 | x4 | x4 | x4 | x4 | x4 | x4 | x4 | x4 | x4 | x4 | x4 | x4 | x4 | %144
 x4 | x4 | x4 | x4 | x4 |[K:treble] x4 | x4 | x4 | x4 | x4 | x4 | x4 | x4 | x4 | x4 | x4 | x4 | %161
 x4 | x4 | x4 | x4 | x4 | x15/4[K:bass] x/4 |[K:treble] x4 | x4 | x4 | x4 |[K:bass] x4 | x4 | x4 | %174
 x4 | x4 | x4 | x4 | x4 | x4 | x4 | x4 | x4 | x4 | x4 | x4 | x4 | x4 | x4 | x4 | x4 | x4 | x4 | %193
 x4 | x4 | x4 | x4 | x4 | x4 | x4 | x4 | x4 | x4 | x4 | x4 | x4 | D,3 ^D, | x4 | x4 | x4 | x4 | %211
 x4 | x4 | x4 | x4 | x4 | x4 | x4 | x4 | x4 | x4 | x4 | x4 | x4 | x4 | x4 | x4 | x4 | x4 | x4 | %230
 x4 | x4 | x4 | x4 | x4 | x4 | x4 | x4 | x4 || x4 | x4 | x4 | x4 | x4 | x4 | x4 | x4 | x4 | x4 | %249
 x4 | x4 | x4 | x4 | x4 | x4 | x4 | x4 | x4 | x4 | x4 | x4 | x4 | x4 | x4 | x4 | x4 | x4 | x4 | %268
 x4 | x4 | x4 | x4 | x4 | x4 | x4 | x4 | x4 | x4 | x4 | x4 | x4 | x4 | x4 | x4 | x4 | x4 | x4 | %287
 x4 | x4 | x4 | x4 | x4 | x4 | x4 | x4 | x4 | x4 | x4 | x4 | x4 | x4 | x4 | x4 | x4 | x4 | x4 | %306
 x4 | x4 | x4 | x4 | x4 | x4 | x4 | x4 | x4 | x4 | x4 | x4 | x4 | x4 | x4 | x4 | x4 | x4 | %324
[K:treble] x4 |[K:bass] x4 | x4 | x4 | x4 | x4 | x4 | x4 | x2[K:treble] x2 | x4 | x4 |[K:bass] x4 | %336
 x4 | x4 | x4 | x4 | x4 | x4 | x4 | x4 | x4 | x4 | x4 | x2/3[K:treble] x10/3 | x4 | %349
[K:bass] x2/3[K:treble] x10/3 | x4 |[K:bass] x2/3[K:treble] x10/3 |[K:bass] x2/3[K:treble] x10/3 | %353
[K:bass] x4 | x4 | x4 | x6 | x4 | x4 | x4 | x4 | x4 | x4 | x4 | x6 | x4 | x4 | x4 | x4 | x4 | x4 | %371
 x4 | x4 | x4 ||[K:A][M:3/4] x6 | x6 | x6 | x6 | x6 | x6 | x6 | x6 | x6 | x6 | x6 | x6 | x6 | x6 | %388
 x6 | x6 | x6 | x6 | x6 | x6 | x6 | x6 | x6 | x6 | x6 | x6 | x6 | x6 | x6 | x6 | x6 | x6 | x6 | %407
 x6 | x6 | x6 | x6 | x6 | x6 | x6 | x6 | x6 | x6 | x6 | x6 | x6 |[K:treble] x6 | x6 | x6 | %423
[K:bass] x6 | x6 | x6 | x6 | x6 | x6 | x6 | x6 | x6 | x6 | x6 | x6 | x6 | x6 | x6 | x6 | x6 | x6 | %441
 x6 | x6 ||[M:4/4] x8 | x8 | x8 | x8 | x8 | x8 | x8 | x4[K:treble] x4 | x2[K:bass] x6 | %452
[K:treble] x8 | x[K:bass] x3[K:treble] x[K:bass] x3 | x8 | x8 | x8 | x8 | x8 |!8vb(! x8 | %460
 x8!8vb)! |!8vb(! x8 | x!8vb)! x7 |] %463
V:10
 x4 | x4 | x4 | x4 | x4 | x4 | x4 | x4 | x4 | x4 | x4 | x4 | x4 | x4 | x4 | x4 | x4 | x4 | x4 | %19
 x4 | x4 | x4 | x4 | x4 | x4 | x4 | x4 | x4 | x4 | x4 | x4 | x4 | x4 | x4 | x4 | x4 | x4 | x4 | %38
 x4 | x4 | x4 | x4 | x4 | x4 | x4 | x4 | x4 | x4 | x4 | x4 | x4 | x4 | x4 | x4 | x4 | x4 | x4 | %57
 x4 | x4 | x4 | x4 | x4 | x4 | x4 | x4 | x4 | x4 | x4 | x4 | x4 | x4 | x4 | x4 | x4 | x4 | x4 | %76
 x4 | x4 | x4 | x4 | x4 | x4 | x4 | x4 | x4 | x4 | x4 | x4 | x4 | x4 | x4 | x4 | x4 | x4 | x4 | %95
 x4 | x4 | x4 | x4 | x4 | x4 | x4 | x4 | x4 | x4 | x4 | x4 | x4 | x4 | x4 | x4 | x4 | x4 | x4 | %114
 x6 | x4 | x4 | x4 | x4 | x4 | x4 | x4 | x4 | x4 | x4 | x4 | x4 | x4 | x4 | x4 | x4 | x4 | x4 | %133
 x4 | x4 | x4 | x4 | x4 | x4 | x4 | x4 | x4 | x4 | x4 | x4 | x4 | x4 | x4 | x4 | x4 | x4 | x4 | %152
 x4 | x4 | x4 | x4 | x4 | x4 | x4 | x4 | x4 | x4 | x4 | x4 | x4 | x4 | x4 | x4 | x4 | x4 | x4 | %171
 x4 | x4 | x4 | x4 | x4 | x4 | x4 | x4 | x4 | x4 | x4 | x4 | x4 | x4 | x4 | x4 | x4 | x4 | x4 | %190
 x4 | x4 | x4 | x4 | x4 | x4 | x4 | x4 | x4 | x4 | x4 | x4 | x4 | x4 | x4 | x4 | x4 | x4 | x4 | %209
 x4 | x4 | x4 | x4 | x4 | x4 | x4 | x4 | x4 | x2 AG | x4 | x4 | x4 | x4 | x4 | x4 | x4 | x4 | x4 | %228
 x4 | x4 | x4 | x4 | x4 | x4 | x4 | x4 | x4 | x4 | x4 || x4 | x4 | x4 | x4 | x4 | x4 | x4 | x4 | %247
 x4 | x4 | x4 | x4 | x4 | x4 | x4 | x4 | x4 | x4 | x4 | x4 | x4 | x4 | x4 | x4 | x4 | x4 | x4 | %266
 x4 | x4 | x4 | x4 | x4 | x4 | x4 | x4 | x4 | x4 | x4 | x4 | x4 | x4 | x4 | x4 | x4 | x4 | x4 | %285
 x4 | x4 | x4 | x4 | x4 | x4 | x4 | x4 | x4 | x4 | x4 | x4 | x4 | x4 | x4 | x4 | x4 | x4 | x4 | %304
 x4 | x4 | x4 | x4 | x4 | x4 | x4 | x4 | x4 | x4 | x4 | x4 | x4 | x4 | x4 | x4 | x4 | x4 | x4 | %323
 x4 | x4 | x4 | x4 | x4 | x4 | x4 | x4 | x4 | x4 | x4 | x4 | x4 | x4 | x4 | x4 | x4 | x4 | x4 | %342
 x4 | x4 | x4 | x4 | x4 | x4 | x4 | x4 | x4 | x4 | x4 | x4 | x4 | x4 | x6 | x4 | x4 | x4 | x4 | %361
 x4 | x4 | x4 | x6 | x4 | x4 | x4 | x4 | x4 | x4 | x4 | x4 | x4 ||[K:A][M:3/4] x6 | x6 | x6 | x6 | %378
 x6 | x6 | x6 | x6 | x6 | x6 | x6 | x6 | x6 | x6 | x6 | x6 | x6 | x6 | x6 | x6 | x6 | x6 | x6 | %397
 x6 | x6 | x6 | x6 | x6 | x6 | x6 | x6 | x6 | x6 | x6 | x6 | x6 | x6 | x6 | x6 | x6 | x6 | x6 | %416
 x6 | x6 | x6 | x6 | x6 | x6 | x6 | x6 | x6 | x6 | x6 | x6 | x6 | x6 | x6 | x6 | x6 | x6 | x6 | %435
 x6 | x6 | x6 | x6 | x6 | x6 | x6 | x6 ||[M:4/4] x8 | x8 | x8 | x8 | x8 | x8 | x8 | x8 | x8 | x8 | %453
 x8 | x8 | x8 | x8 | x8 | x4!8va(! x4 | x2!8va)! x6 | x8 | x8 | x8 |] %463

